mltejas88/Project_Mycobot_280pi_simulation/mycobot/workspace/traj_log.csv
time,des_joint2_to_joint1,des_joint3_to_joint2,des_joint4_to_joint3,des_joint5_to_joint4,des_joint6_to_joint5,des_joint6output_to_joint6,act_joint2_to_joint1,act_joint3_to_joint2,act_joint4_to_joint3,act_joint5_to_joint4,act_joint6_to_joint5,act_joint6output_to_joint6
0.000000,0.500000,0.986603,-0.713397,0.700000,-0.386603,-0.086603,0.500000,0.900000,-0.800000,0.700000,-0.300000,0.000000
0.050000,0.507846,0.990259,-0.717587,0.692154,-0.390259,-0.082413,0.500000,0.900000,-0.800000,0.700000,-0.300000,0.000000
0.100000,0.515643,0.993358,-0.722285,0.684357,-0.393358,-0.077715,0.500000,0.900000,-0.800000,0.700000,-0.300000,0.000000
0.150000,0.523345,0.995882,-0.727463,0.676655,-0.395882,-0.072537,0.502063,0.935958,-0.765637,0.697937,-0.336426,-0.034363
0.200000,0.530902,0.997815,-0.733087,0.669098,-0.397815,-0.066913,0.506481,0.959010,-0.747195,0.693519,-0.359286,-0.052805
0.250000,0.538268,0.999144,-0.739124,0.661732,-0.399144,-0.060876,0.512246,0.973735,-0.738348,0.687754,-0.373898,-0.061652
0.300000,0.545399,0.999863,-0.745536,0.654601,-0.399863,-0.054464,0.518900,0.983447,-0.735358,0.681100,-0.383542,-0.064642
0.350000,0.552250,0.999966,-0.752284,0.647750,-0.399966,-0.047716,0.525658,0.989597,-0.736004,0.674342,-0.389654,-0.063996
0.400000,0.558779,0.999452,-0.759326,0.641221,-0.399452,-0.040674,0.532696,0.993696,-0.738967,0.667304,-0.393729,-0.061033
0.450000,0.564945,0.998325,-0.766619,0.635055,-0.398325,-0.033381,0.539687,0.996248,-0.743419,0.660313,-0.396268,-0.056581
0.500000,0.570711,0.996593,-0.774118,0.629289,-0.396593,-0.025882,0.546548,0.997636,-0.748901,0.653452,-0.397647,-0.051099
0.550000,0.576041,0.994264,-0.781776,0.623959,-0.394264,-0.018224,0.553337,0.998082,-0.755248,0.646663,-0.398089,-0.044752
0.600000,0.580902,0.991355,-0.789547,0.619098,-0.391355,-0.010453,0.559479,0.997737,-0.761738,0.640521,-0.397741,-0.038262
0.650000,0.585264,0.987882,-0.797382,0.614736,-0.387882,-0.002618,0.565472,0.996660,-0.768810,0.634528,-0.396662,-0.031190
0.700000,0.589101,0.983867,-0.805234,0.610899,-0.383867,0.005234,0.571068,0.994920,-0.776147,0.628932,-0.394921,-0.023853
0.750000,0.592388,0.979335,-0.813053,0.607612,-0.379335,0.013053,0.576242,0.992547,-0.783694,0.623758,-0.392548,-0.016306
0.800000,0.595106,0.974314,-0.820791,0.604894,-0.374314,0.020791,0.580945,0.989581,-0.791364,0.619055,-0.389581,-0.008636
0.850000,0.597237,0.968835,-0.828402,0.602763,-0.368835,0.028402,0.585220,0.985980,-0.799240,0.614780,-0.385980,-0.000760
0.900000,0.598769,0.962932,-0.835837,0.601231,-0.362932,0.035837,0.588879,0.981918,-0.806960,0.611121,-0.381919,0.006960
0.950000,0.599692,0.956641,-0.843051,0.600308,-0.356641,0.043051,0.591946,0.977430,-0.814516,0.608054,-0.377430,0.014516
1.000000,0.600000,0.950000,-0.850000,0.600000,-0.350000,0.050000,0.594515,0.972359,-0.822157,0.605485,-0.372359,0.022157
1.050000,0.599692,0.943051,-0.856641,0.600308,-0.343051,0.056641,0.596592,0.966530,-0.830062,0.603408,-0.366530,0.030062
1.100000,0.598769,0.935837,-0.862932,0.601231,-0.335837,0.062932,0.597886,0.960955,-0.836931,0.602114,-0.360955,0.036931
1.150000,0.597237,0.928402,-0.868835,0.602763,-0.328402,0.068835,0.598671,0.954642,-0.844029,0.601329,-0.354642,0.044029
1.200000,0.595106,0.920791,-0.874314,0.604894,-0.320791,0.074314,0.598843,0.947864,-0.850979,0.601157,-0.347864,0.050979
1.250000,0.592388,0.913053,-0.879335,0.607612,-0.313053,0.079335,0.598401,0.940944,-0.857457,0.601599,-0.340944,0.057457
1.300000,0.589101,0.905234,-0.883867,0.610899,-0.305234,0.083867,0.597376,0.933900,-0.863476,0.602624,-0.333900,0.063476
1.350000,0.585264,0.897382,-0.887882,0.614736,-0.297382,0.087882,0.595741,0.926523,-0.869218,0.604259,-0.326523,0.069218
1.400000,0.580902,0.889547,-0.891355,0.619098,-0.289547,0.091355,0.593503,0.918951,-0.874552,0.606497,-0.318951,0.074552
1.450000,0.576041,0.881776,-0.894264,0.623959,-0.281776,0.094264,0.590697,0.911281,-0.879416,0.609303,-0.311281,0.079416
1.500000,0.570711,0.874118,-0.896593,0.629289,-0.274118,0.096593,0.587333,0.903542,-0.883790,0.612667,-0.303542,0.083790
1.550000,0.564945,0.866619,-0.898325,0.635055,-0.266619,0.098325,0.583352,0.895640,-0.887713,0.616648,-0.295640,0.087713
1.600000,0.558779,0.859326,-0.899452,0.641221,-0.259326,0.099452,0.578924,0.887903,-0.891021,0.621076,-0.287903,0.091021
1.650000,0.552250,0.852284,-0.899966,0.647750,-0.252284,0.099966,0.574113,0.880392,-0.893721,0.625887,-0.280392,0.093721
1.700000,0.545399,0.845536,-0.899863,0.654601,-0.245536,0.099863,0.568749,0.872848,-0.895901,0.631251,-0.272848,0.095901
1.750000,0.538268,0.839124,-0.899144,0.661732,-0.239124,0.099144,0.562963,0.865474,-0.897489,0.637037,-0.265474,0.097489
1.800000,0.530902,0.833087,-0.897815,0.669098,-0.233087,0.097815,0.556660,0.858172,-0.898488,0.643340,-0.258172,0.098488
1.850000,0.523345,0.827463,-0.895882,0.676655,-0.227463,0.095882,0.550277,0.851418,-0.898859,0.649723,-0.251418,0.098859
1.900000,0.515643,0.822285,-0.893358,0.684357,-0.222285,0.093358,0.543423,0.844796,-0.898626,0.656577,-0.244796,0.098626
1.950000,0.507846,0.817587,-0.890259,0.692154,-0.217587,0.090259,0.536309,0.838523,-0.897786,0.663691,-0.238523,0.097786
2.000000,0.500000,0.813397,-0.886603,0.700000,-0.213397,0.086603,0.528989,0.832642,-0.896347,0.671011,-0.232642,0.096347
2.050000,0.492154,0.809741,-0.882413,0.707846,-0.209741,0.082413,0.521474,0.827166,-0.894308,0.678526,-0.227166,0.094308
2.100000,0.484357,0.806642,-0.877715,0.715643,-0.206642,0.077715,0.513843,0.822149,-0.891695,0.686157,-0.222149,0.091695
2.150000,0.476655,0.804118,-0.872537,0.723345,-0.204118,0.072537,0.506143,0.817618,-0.888525,0.693857,-0.217618,0.088525
2.200000,0.469098,0.802185,-0.866913,0.730902,-0.202185,0.066913,0.498365,0.813578,-0.884787,0.701635,-0.213578,0.084787
2.250000,0.461732,0.800856,-0.860876,0.738268,-0.200856,0.060876,0.490604,0.810074,-0.880530,0.709396,-0.210074,0.080530
2.300000,0.454601,0.800137,-0.854464,0.745399,-0.200137,0.054464,0.482778,0.807083,-0.875696,0.717222,-0.207083,0.075696
2.350000,0.447750,0.800034,-0.847716,0.752250,-0.200034,0.047716,0.475331,0.804757,-0.870574,0.724669,-0.204757,0.070574
2.400000,0.441221,0.800548,-0.840674,0.758779,-0.200548,0.040674,0.467887,0.802970,-0.864917,0.732113,-0.202970,0.064917
2.450000,0.435055,0.801675,-0.833381,0.764945,-0.201675,0.033381,0.460681,0.801784,-0.858898,0.739319,-0.201784,0.058898
2.500000,0.429289,0.803407,-0.825882,0.770711,-0.203407,0.025882,0.453691,0.801201,-0.852490,0.746309,-0.201201,0.052490
2.550000,0.423959,0.805736,-0.818224,0.776041,-0.205736,0.018224,0.446988,0.801225,-0.845763,0.753012,-0.201225,0.045763
2.600000,0.419098,0.808645,-0.810453,0.780902,-0.208645,0.010453,0.440494,0.801877,-0.838617,0.759506,-0.201877,0.038617
2.650000,0.414736,0.812118,-0.802618,0.785264,-0.212118,0.002618,0.434577,0.803102,-0.831475,0.765423,-0.203102,0.031475
2.700000,0.410899,0.816133,-0.794766,0.789101,-0.216133,-0.005234,0.428625,0.805071,-0.823554,0.771375,-0.205071,0.023554
2.750000,0.407612,0.820665,-0.786947,0.792388,-0.220665,-0.013053,0.423808,0.807345,-0.816463,0.776192,-0.207345,0.016463
2.800000,0.404894,0.825686,-0.779209,0.795106,-0.225686,-0.020791,0.419098,0.810341,-0.808758,0.780902,-0.210341,0.008758
2.850000,0.402763,0.831165,-0.771598,0.797237,-0.231165,-0.028402,0.414799,0.813981,-0.800818,0.785201,-0.213981,0.000818
2.900000,0.401231,0.837068,-0.764163,0.798769,-0.237068,-0.035837,0.411134,0.818058,-0.793076,0.788866,-0.218058,-0.006924
2.950000,0.400308,0.843359,-0.756949,0.799692,-0.243359,-0.043051,0.408057,0.822568,-0.785489,0.791943,-0.222568,-0.014511
3.000000,0.400000,0.850000,-0.750000,0.800000,-0.250000,-0.050000,0.405495,0.827608,-0.777886,0.794505,-0.227608,-0.022114
3.050000,0.400308,0.856949,-0.743359,0.799692,-0.256949,-0.056641,0.403477,0.833241,-0.770236,0.796523,-0.233241,-0.029764
3.100000,0.401231,0.864163,-0.737068,0.798769,-0.264163,-0.062932,0.402116,0.839056,-0.763060,0.797884,-0.239056,-0.036940
3.150000,0.402763,0.871598,-0.731165,0.797237,-0.271598,-0.068835,0.401331,0.845365,-0.755966,0.798669,-0.245365,-0.044034
3.200000,0.404894,0.879209,-0.725686,0.795106,-0.279209,-0.074314,0.401155,0.852005,-0.749150,0.798845,-0.252005,-0.050850
3.250000,0.407612,0.886947,-0.720665,0.792388,-0.286947,-0.079335,0.401589,0.858939,-0.742650,0.798411,-0.258939,-0.057350
3.300000,0.410899,0.894766,-0.716133,0.789101,-0.294766,-0.083867,0.402630,0.866124,-0.736506,0.797370,-0.266124,-0.063494
3.350000,0.414736,0.902618,-0.712118,0.785264,-0.302618,-0.087882,0.404272,0.873516,-0.730755,0.795728,-0.273516,-0.069245
3.400000,0.419098,0.910453,-0.708645,0.780902,-0.310453,-0.091355,0.406529,0.881160,-0.725369,0.793471,-0.281160,-0.074631
3.450000,0.423959,0.918224,-0.705736,0.776041,-0.318224,-0.094264,0.409295,0.888704,-0.720591,0.790705,-0.288704,-0.079409
3.500000,0.429289,0.925882,-0.703407,0.770711,-0.325882,-0.096593,0.412653,0.896432,-0.716221,0.787347,-0.296432,-0.083779
3.550000,0.435055,0.933381,-0.701675,0.764945,-0.333381,-0.098325,0.416554,0.904190,-0.712364,0.783446,-0.304190,-0.087636
3.600000,0.441221,0.940674,-0.700548,0.758779,-0.340674,-0.099452,0.420988,0.911950,-0.709038,0.779012,-0.311950,-0.090962
3.650000,0.447750,0.947716,-0.700034,0.752250,-0.347716,-0.099966,0.425903,0.919627,-0.706276,0.774097,-0.319627,-0.093724
3.700000,0.454601,0.954464,-0.700137,0.745399,-0.354464,-0.099863,0.431272,0.927176,-0.704096,0.768728,-0.327176,-0.095904
3.750000,0.461732,0.960876,-0.700856,0.738268,-0.360876,-0.099144,0.437050,0.934541,-0.702509,0.762950,-0.334541,-0.097491
3.800000,0.469098,0.966913,-0.702185,0.730902,-0.366913,-0.097815,0.443223,0.941700,-0.701522,0.756777,-0.341700,-0.098478
3.850000,0.476655,0.972537,-0.704118,0.723345,-0.372537,-0.095882,0.449757,0.948613,-0.701144,0.750243,-0.348613,-0.098856
3.900000,0.484357,0.977715,-0.706642,0.715643,-0.377715,-0.093358,0.456584,0.955211,-0.701373,0.743416,-0.355211,-0.098627
3.950000,0.492154,0.982413,-0.709741,0.707846,-0.382413,-0.090259,0.463684,0.961473,-0.702211,0.736316,-0.361473,-0.097789
4.000000,0.500000,0.986603,-0.713397,0.700000,-0.386603,-0.086603,0.471009,0.967358,-0.703652,0.728991,-0.367358,-0.096348
4.050000,0.507846,0.990259,-0.717587,0.692154,-0.390259,-0.082413,0.478525,0.972834,-0.705691,0.721475,-0.372834,-0.094309
4.100000,0.515643,0.993358,-0.722285,0.684357,-0.393358,-0.077715,0.486155,0.977850,-0.708304,0.713845,-0.377850,-0.091696
4.150000,0.523345,0.995882,-0.727463,0.676655,-0.395882,-0.072537,0.493887,0.982396,-0.711491,0.706113,-0.382396,-0.088509
4.200000,0.530902,0.997815,-0.733087,0.669098,-0.397815,-0.066913,0.501793,0.986497,-0.715295,0.698207,-0.386497,-0.084705
4.250000,0.538268,0.999144,-0.739124,0.661732,-0.399144,-0.060876,0.509397,0.989927,-0.719469,0.690603,-0.389927,-0.080531
4.300000,0.545399,0.999863,-0.745536,0.654601,-0.399863,-0.054464,0.517234,0.992921,-0.724313,0.682766,-0.392921,-0.075687
4.350000,0.552250,0.999966,-0.752284,0.647750,-0.399966,-0.047716,0.524931,0.995314,-0.729617,0.675069,-0.395314,-0.070383
4.400000,0.558779,0.999452,-0.759326,0.641221,-0.399452,-0.040674,0.532236,0.997056,-0.735180,0.667764,-0.397056,-0.064820
4.450000,0.564945,0.998325,-0.766619,0.635055,-0.398325,-0.033381,0.539340,0.998217,-0.741123,0.660660,-0.398217,-0.058877
4.500000,0.570711,0.996593,-0.774118,0.629289,-0.396593,-0.025882,0.546343,0.998798,-0.747545,0.653657,-0.398798,-0.052455
4.550000,0.576041,0.994264,-0.781776,0.623959,-0.394264,-0.018224,0.553057,0.998770,-0.754287,0.646943,-0.398770,-0.045713
4.600000,0.580902,0.991355,-0.789547,0.619098,-0.391355,-0.010453,0.559544,0.998117,-0.761427,0.640457,-0.398117,-0.038573
4.650000,0.585264,0.987882,-0.797382,0.614736,-0.387882,-0.002618,0.565434,0.996899,-0.768536,0.634566,-0.396899,-0.031464
4.700000,0.589101,0.983867,-0.805234,0.610899,-0.383867,0.005234,0.571047,0.995060,-0.775987,0.628953,-0.395060,-0.024013
4.750000,0.592388,0.979335,-0.813053,0.607612,-0.379335,0.013053,0.576229,0.992630,-0.783599,0.623771,-0.392630,-0.016401
4.800000,0.595106,0.974314,-0.820791,0.604894,-0.374314,0.020791,0.580938,0.989630,-0.791308,0.619062,-0.389630,-0.008692
4.850000,0.597237,0.968835,-0.828402,0.602763,-0.368835,0.028402,0.585139,0.986087,-0.799052,0.614861,-0.386087,-0.000948
4.900000,0.598769,0.962932,-0.835837,0.601231,-0.362932,0.035837,0.588817,0.982010,-0.806807,0.611183,-0.382010,0.006807
4.950000,0.599692,0.956641,-0.843051,0.600308,-0.356641,0.043051,0.591953,0.977418,-0.814534,0.608047,-0.377418,0.014534
5.000000,0.600000,0.950000,-0.850000,0.600000,-0.350000,0.050000,0.594517,0.972362,-0.822154,0.605483,-0.372362,0.022154
5.050000,0.599692,0.943051,-0.856641,0.600308,-0.343051,0.056641,0.596498,0.966866,-0.829632,0.603502,-0.366866,0.029632
5.100000,0.598769,0.935837,-0.862932,0.601231,-0.335837,0.062932,0.597885,0.960981,-0.836903,0.602115,-0.360981,0.036903
5.150000,0.597237,0.928402,-0.868835,0.602763,-0.328402,0.068835,0.598670,0.954672,-0.843999,0.601330,-0.354672,0.043999
5.200000,0.595106,0.920791,-0.874314,0.604894,-0.320791,0.074314,0.598846,0.948016,-0.850830,0.601154,-0.348016,0.050830
5.250000,0.592388,0.913053,-0.879335,0.607612,-0.313053,0.079335,0.598384,0.940822,-0.857563,0.601616,-0.340822,0.057563
5.300000,0.589101,0.905234,-0.883867,0.610899,-0.305234,0.083867,0.597379,0.933915,-0.863464,0.602621,-0.333915,0.063464
5.350000,0.585264,0.897382,-0.887882,0.614736,-0.297382,0.087882,0.595734,0.926506,-0.869227,0.604266,-0.326506,0.069227
5.400000,0.580902,0.889547,-0.891355,0.619098,-0.289547,0.091355,0.593499,0.918941,-0.874558,0.606501,-0.318941,0.074558
5.450000,0.576041,0.881776,-0.894264,0.623959,-0.281776,0.094264,0.590644,0.911148,-0.879496,0.609356,-0.311148,0.079496
5.500000,0.570711,0.874118,-0.896593,0.629289,-0.274118,0.096593,0.587333,0.903543,-0.883790,0.612667,-0.303543,0.083790
5.550000,0.564945,0.866619,-0.898325,0.635055,-0.266619,0.098325,0.583429,0.895782,-0.887648,0.616571,-0.295782,0.087648
5.600000,0.558779,0.859326,-0.899452,0.641221,-0.259326,0.099452,0.579011,0.888046,-0.890966,0.620989,-0.288046,0.090966
5.650000,0.552250,0.852284,-0.899966,0.647750,-0.252284,0.099966,0.574116,0.880397,-0.893719,0.625884,-0.280397,0.093719
5.700000,0.545399,0.845536,-0.899863,0.654601,-0.245536,0.099863,0.568739,0.872838,-0.895902,0.631261,-0.272838,0.095902
5.750000,0.538268,0.839124,-0.899144,0.661732,-0.239124,0.099144,0.562944,0.865453,-0.897491,0.637056,-0.265453,0.097491
5.800000,0.530902,0.833087,-0.897815,0.669098,-0.233087,0.097815,0.556786,0.858308,-0.898478,0.643214,-0.258308,0.098478
5.850000,0.523345,0.827463,-0.895882,0.676655,-0.227463,0.095882,0.550127,0.851271,-0.898856,0.649873,-0.251271,0.098856
5.900000,0.515643,0.822285,-0.893358,0.684357,-0.222285,0.093358,0.543416,0.844789,-0.898626,0.656584,-0.244789,0.098626
5.950000,0.507846,0.817587,-0.890259,0.692154,-0.217587,0.090259,0.536317,0.838528,-0.897789,0.663683,-0.238528,0.097789
6.000000,0.500000,0.813397,-0.886603,0.700000,-0.213397,0.086603,0.528861,0.832544,-0.896317,0.671139,-0.232544,0.096317
6.050000,0.492154,0.809741,-0.882413,0.707846,-0.209741,0.082413,0.521488,0.827174,-0.894314,0.678512,-0.227174,0.094314
6.100000,0.484357,0.806642,-0.877715,0.715643,-0.206642,0.077715,0.513839,0.822147,-0.891692,0.686161,-0.222147,0.091692
6.150000,0.476655,0.804118,-0.872537,0.723345,-0.204118,0.072537,0.506122,0.817609,-0.888513,0.693878,-0.217609,0.088513
6.200000,0.469098,0.802185,-0.866913,0.730902,-0.202185,0.066913,0.498398,0.813590,-0.884807,0.701602,-0.213590,0.084807
6.250000,0.461732,0.800856,-0.860876,0.738268,-0.200856,0.060876,0.490623,0.810081,-0.880542,0.709377,-0.210081,0.080542
6.300000,0.454601,0.800137,-0.854464,0.745399,-0.200137,0.054464,0.482917,0.807131,-0.875785,0.717083,-0.207131,0.075785
6.350000,0.447750,0.800034,-0.847716,0.752250,-0.200034,0.047716,0.475333,0.804758,-0.870575,0.724667,-0.204758,0.070575
6.400000,0.441221,0.800548,-0.840674,0.758779,-0.200548,0.040674,0.467900,0.802972,-0.864928,0.732100,-0.202972,0.064928
6.450000,0.435055,0.801675,-0.833381,0.764945,-0.201675,0.033381,0.460665,0.801784,-0.858881,0.739335,-0.201784,0.058881
6.500000,0.429289,0.803407,-0.825882,0.770711,-0.203407,0.025882,0.453660,0.801203,-0.852457,0.746340,-0.201203,0.052457
6.550000,0.423959,0.805736,-0.818224,0.776041,-0.205736,0.018224,0.446652,0.801247,-0.845406,0.753348,-0.201247,0.045406
6.600000,0.419098,0.808645,-0.810453,0.780902,-0.208645,0.010453,0.440593,0.801858,-0.838734,0.759407,-0.201858,0.038734
6.650000,0.414736,0.812118,-0.802618,0.785264,-0.212118,0.002618,0.434563,0.803105,-0.831458,0.765437,-0.203105,0.031458
6.700000,0.410899,0.816133,-0.794766,0.789101,-0.216133,-0.005234,0.428950,0.804943,-0.824007,0.771050,-0.204943,0.024007
6.750000,0.407612,0.820665,-0.786947,0.792388,-0.220665,-0.013053,0.423777,0.807365,-0.816412,0.776223,-0.207365,0.016412
6.800000,0.404894,0.825686,-0.779209,0.795106,-0.225686,-0.020791,0.419066,0.810367,-0.808699,0.780934,-0.210367,0.008699
6.850000,0.402763,0.831165,-0.771598,0.797237,-0.231165,-0.028402,0.414880,0.813888,-0.800992,0.785120,-0.213888,0.000992
6.900000,0.401231,0.837068,-0.764163,0.798769,-0.237068,-0.035837,0.411195,0.817973,-0.793222,0.788805,-0.217973,-0.006778
6.950000,0.400308,0.843359,-0.756949,0.799692,-0.243359,-0.043051,0.408062,0.822552,-0.785510,0.791938,-0.222552,-0.014490
7.000000,0.400000,0.850000,-0.750000,0.800000,-0.250000,-0.050000,0.405494,0.827613,-0.777881,0.794506,-0.227613,-0.022119
7.050000,0.400308,0.856949,-0.743359,0.799692,-0.256949,-0.056641,0.403506,0.833139,-0.770367,0.796494,-0.233139,-0.029633
7.100000,0.401231,0.864163,-0.737068,0.798769,-0.264163,-0.062932,0.402097,0.839181,-0.762916,0.797903,-0.239181,-0.037084
7.150000,0.402763,0.871598,-0.731165,0.797237,-0.271598,-0.068835,0.401330,0.845363,-0.755966,0.798670,-0.245363,-0.044034
7.200000,0.404894,0.879209,-0.725686,0.795106,-0.279209,-0.074314,0.401153,0.851993,-0.749160,0.798847,-0.251993,-0.050840
7.250000,0.407612,0.886947,-0.720665,0.792388,-0.286947,-0.079335,0.401585,0.858919,-0.742666,0.798415,-0.258919,-0.057334
7.300000,0.410899,0.894766,-0.716133,0.789101,-0.294766,-0.083867,0.402619,0.866082,-0.736537,0.797381,-0.266082,-0.063463
7.350000,0.414736,0.902618,-0.712118,0.785264,-0.302618,-0.087882,0.404265,0.873492,-0.730774,0.795735,-0.273492,-0.069226
7.400000,0.419098,0.910453,-0.708645,0.780902,-0.310453,-0.091355,0.406593,0.881350,-0.725243,0.793407,-0.281350,-0.074757
7.450000,0.423959,0.918224,-0.705736,0.776041,-0.318224,-0.094264,0.409275,0.888659,-0.720616,0.790725,-0.288659,-0.079384
7.500000,0.429289,0.925882,-0.703407,0.770711,-0.325882,-0.096593,0.412649,0.896419,-0.716230,0.787351,-0.296419,-0.083770
7.550000,0.435055,0.933381,-0.701675,0.764945,-0.333381,-0.098325,0.416559,0.904195,-0.712364,0.783441,-0.304195,-0.087636
7.600000,0.441221,0.940674,-0.700548,0.758779,-0.340674,-0.099452,0.420991,0.911953,-0.709038,0.779009,-0.311953,-0.090962
7.650000,0.447750,0.947716,-0.700034,0.752250,-0.347716,-0.099966,0.425905,0.919628,-0.706277,0.774095,-0.319628,-0.093723
7.700000,0.454601,0.954464,-0.700137,0.745399,-0.354464,-0.099863,0.431273,0.927177,-0.704096,0.768727,-0.327177,-0.095904
7.750000,0.461732,0.960876,-0.700856,0.738268,-0.360876,-0.099144,0.437260,0.934793,-0.702467,0.762740,-0.334793,-0.097533
7.800000,0.469098,0.966913,-0.702185,0.730902,-0.366913,-0.097815,0.443212,0.941690,-0.701521,0.756788,-0.341690,-0.098479
7.850000,0.476655,0.972537,-0.704118,0.723345,-0.372537,-0.095882,0.449750,0.948607,-0.701143,0.750250,-0.348607,-0.098857
7.900000,0.484357,0.977715,-0.706642,0.715643,-0.377715,-0.093358,0.456593,0.955218,-0.701375,0.743407,-0.355218,-0.098625
7.950000,0.492154,0.982413,-0.709741,0.707846,-0.382413,-0.090259,0.463701,0.961486,-0.702215,0.736299,-0.361486,-0.097785
8.000000,0.500000,0.986603,-0.713397,0.700000,-0.386603,-0.086603,0.471007,0.967357,-0.703650,0.728993,-0.367357,-0.096350
8.050000,0.507846,0.990259,-0.717587,0.692154,-0.390259,-0.082413,0.478523,0.972833,-0.705690,0.721477,-0.372833,-0.094310
8.100000,0.515643,0.993358,-0.722285,0.684357,-0.393358,-0.077715,0.486308,0.977944,-0.708364,0.713692,-0.377944,-0.091636
8.150000,0.523345,0.995882,-0.727463,0.676655,-0.395882,-0.072537,0.493882,0.982394,-0.711488,0.706118,-0.382394,-0.088512
8.200000,0.530902,0.997815,-0.733087,0.669098,-0.397815,-0.066913,0.501650,0.986429,-0.715221,0.698350,-0.386429,-0.084779
8.250000,0.538268,0.999144,-0.739124,0.661732,-0.399144,-0.060876,0.509405,0.989930,-0.719475,0.690595,-0.389930,-0.080525
8.300000,0.545399,0.999863,-0.745536,0.654601,-0.399863,-0.054464,0.517065,0.992867,-0.724198,0.682935,-0.392867,-0.075802
8.350000,0.552250,0.999966,-0.752284,0.647750,-0.399966,-0.047716,0.524646,0.995239,-0.729408,0.675354,-0.395239,-0.070592
8.400000,0.558779,0.999452,-0.759326,0.641221,-0.399452,-0.040674,0.532089,0.997026,-0.735063,0.667911,-0.397026,-0.064937
8.450000,0.564945,0.998325,-0.766619,0.635055,-0.398325,-0.033381,0.539328,0.998215,-0.741113,0.660672,-0.398215,-0.058887
8.500000,0.570711,0.996593,-0.774118,0.629289,-0.396593,-0.025882,0.546302,0.998799,-0.747502,0.653698,-0.398799,-0.052498
8.550000,0.576041,0.994264,-0.781776,0.623959,-0.394264,-0.018224,0.553151,0.998763,-0.754388,0.646849,-0.398763,-0.045612
8.600000,0.580902,0.991355,-0.789547,0.619098,-0.391355,-0.010453,0.559426,0.998133,-0.761293,0.640574,-0.398133,-0.038707
8.650000,0.585264,0.987882,-0.797382,0.614736,-0.387882,-0.002618,0.565448,0.996890,-0.768559,0.634552,-0.396890,-0.031441
8.700000,0.589101,0.983867,-0.805234,0.610899,-0.383867,0.005234,0.571143,0.995021,-0.776122,0.628857,-0.395021,-0.023878
8.750000,0.592388,0.979335,-0.813053,0.607612,-0.379335,0.013053,0.576215,0.992641,-0.783573,0.623785,-0.392641,-0.016427
8.800000,0.595106,0.974314,-0.820791,0.604894,-0.374314,0.020791,0.580929,0.989637,-0.791292,0.619071,-0.389637,-0.008708
8.850000,0.597237,0.968835,-0.828402,0.602763,-0.368835,0.028402,0.585134,0.986090,-0.799044,0.614866,-0.386090,-0.000956
8.900000,0.598769,0.962932,-0.835837,0.601231,-0.362932,0.035837,0.588819,0.982004,-0.806815,0.611181,-0.382004,0.006815
8.950000,0.599692,0.956641,-0.843051,0.600308,-0.356641,0.043051,0.591954,0.977415,-0.814539,0.608046,-0.377415,0.014539
9.000000,0.600000,0.950000,-0.850000,0.600000,-0.350000,0.050000,0.594517,0.972360,-0.822157,0.605483,-0.372360,0.022157
9.050000,0.599692,0.943051,-0.856641,0.600308,-0.343051,0.056641,0.596530,0.966742,-0.829789,0.603470,-0.366742,0.029789
9.100000,0.598769,0.935837,-0.862932,0.601231,-0.335837,0.062932,0.597888,0.960941,-0.836946,0.602112,-0.360941,0.036946
9.150000,0.597237,0.928402,-0.868835,0.602763,-0.328402,0.068835,0.598672,0.954647,-0.844026,0.601328,-0.354647,0.044026
9.200000,0.595106,0.920791,-0.874314,0.604894,-0.320791,0.074314,0.598853,0.948047,-0.850806,0.601147,-0.348047,0.050806
9.250000,0.592388,0.913053,-0.879335,0.607612,-0.313053,0.079335,0.598385,0.940789,-0.857595,0.601615,-0.340789,0.057595
9.300000,0.589101,0.905234,-0.883867,0.610899,-0.305234,0.083867,0.597383,0.933933,-0.863450,0.602617,-0.333933,0.063450
9.350000,0.585264,0.897382,-0.887882,0.614736,-0.297382,0.087882,0.595736,0.926517,-0.869219,0.604264,-0.326517,0.069219
9.400000,0.580902,0.889547,-0.891355,0.619098,-0.289547,0.091355,0.593470,0.918845,-0.874625,0.606530,-0.318845,0.074625
9.450000,0.576041,0.881776,-0.894264,0.623959,-0.281776,0.094264,0.590713,0.911319,-0.879394,0.609287,-0.311319,0.079394
9.500000,0.570711,0.874118,-0.896593,0.629289,-0.274118,0.096593,0.587341,0.903563,-0.883778,0.612659,-0.303563,0.083778
9.550000,0.564945,0.866619,-0.898325,0.635055,-0.266619,0.098325,0.583460,0.895835,-0.887625,0.616540,-0.295835,0.087625
9.600000,0.558779,0.859326,-0.899452,0.641221,-0.259326,0.099452,0.579021,0.888065,-0.890956,0.620979,-0.288065,0.090956
9.650000,0.552250,0.852284,-0.899966,0.647750,-0.252284,0.099966,0.574042,0.880288,-0.893753,0.625958,-0.280288,0.093753
9.700000,0.545399,0.845536,-0.899863,0.654601,-0.245536,0.099863,0.568759,0.872864,-0.895895,0.631241,-0.272864,0.095895
9.750000,0.538268,0.839124,-0.899144,0.661732,-0.239124,0.099144,0.562956,0.865469,-0.897486,0.637044,-0.265469,0.097486
9.800000,0.530902,0.833087,-0.897815,0.669098,-0.233087,0.097815,0.556771,0.858296,-0.898475,0.643229,-0.258296,0.098475
9.850000,0.523345,0.827463,-0.895882,0.676655,-0.227463,0.095882,0.550239,0.851385,-0.898854,0.649761,-0.251385,0.098854
9.900000,0.515643,0.822285,-0.893358,0.684357,-0.222285,0.093358,0.543412,0.844787,-0.898626,0.656588,-0.244787,0.098626
9.950000,0.507846,0.817587,-0.890259,0.692154,-0.217587,0.090259,0.536184,0.838417,-0.897767,0.663816,-0.238417,0.097767
10.000000,0.500000,0.813397,-0.886603,0.700000,-0.213397,0.086603,0.528832,0.832523,-0.896309,0.671168,-0.232523,0.096309
10.050000,0.492154,0.809741,-0.882413,0.707846,-0.209741,0.082413,0.521352,0.827080,-0.894272,0.678648,-0.227080,0.094272
10.100000,0.484357,0.806642,-0.877715,0.715643,-0.206642,0.077715,0.513856,0.822156,-0.891700,0.686144,-0.222156,0.091700
10.150000,0.476655,0.804118,-0.872537,0.723345,-0.204118,0.072537,0.506119,0.817608,-0.888511,0.693881,-0.217608,0.088511
10.200000,0.469098,0.802185,-0.866913,0.730902,-0.202185,0.066913,0.498350,0.813572,-0.884779,0.701650,-0.213572,0.084779
10.250000,0.461732,0.800856,-0.860876,0.738268,-0.200856,0.060876,0.490467,0.810017,-0.880451,0.709533,-0.210017,0.080451
10.300000,0.454601,0.800137,-0.854464,0.745399,-0.200137,0.054464,0.482917,0.807129,-0.875787,0.717083,-0.207129,0.075787
10.350000,0.447750,0.800034,-0.847716,0.752250,-0.200034,0.047716,0.475321,0.804755,-0.870566,0.724679,-0.204755,0.070566
10.400000,0.441221,0.800548,-0.840674,0.758779,-0.200548,0.040674,0.467882,0.802969,-0.864912,0.732118,-0.202969,0.064912
10.450000,0.435055,0.801675,-0.833381,0.764945,-0.201675,0.033381,0.460654,0.801783,-0.858872,0.739346,-0.201783,0.058872
10.500000,0.429289,0.803407,-0.825882,0.770711,-0.203407,0.025882,0.453666,0.801201,-0.852465,0.746334,-0.201201,0.052465
10.550000,0.423959,0.805736,-0.818224,0.776041,-0.205736,0.018224,0.446959,0.801228,-0.845731,0.753041,-0.201228,0.045731
10.600000,0.419098,0.808645,-0.810453,0.780902,-0.208645,0.010453,0.440579,0.801863,-0.838716,0.759421,-0.201863,0.038716
10.650000,0.414736,0.812118,-0.802618,0.785264,-0.212118,0.002618,0.434450,0.803136,-0.831314,0.765550,-0.203136,0.031314
10.700000,0.410899,0.816133,-0.794766,0.789101,-0.216133,-0.005234,0.428952,0.804940,-0.824012,0.771048,-0.204940,0.024012
10.750000,0.407612,0.820665,-0.786947,0.792388,-0.220665,-0.013053,0.423770,0.807371,-0.816400,0.776230,-0.207371,0.016400
10.800000,0.404894,0.825686,-0.779209,0.795106,-0.225686,-0.020791,0.418982,0.810431,-0.808551,0.781018,-0.210431,0.008551
10.850000,0.402763,0.831165,-0.771598,0.797237,-0.231165,-0.028402,0.414866,0.813907,-0.800959,0.785134,-0.213907,0.000959
10.900000,0.401231,0.837068,-0.764163,0.798769,-0.237068,-0.035837,0.411181,0.817994,-0.793187,0.788819,-0.217994,-0.006813
10.950000,0.400308,0.843359,-0.756949,0.799692,-0.243359,-0.043051,0.408049,0.822576,-0.785473,0.791951,-0.222576,-0.014527
11.000000,0.400000,0.850000,-0.750000,0.800000,-0.250000,-0.050000,0.405482,0.827645,-0.777837,0.794518,-0.227645,-0.022163
11.050000,0.400308,0.856949,-0.743359,0.799692,-0.256949,-0.056641,0.403467,0.833263,-0.770205,0.796533,-0.233263,-0.029795
11.100000,0.401231,0.864163,-0.737068,0.798769,-0.264163,-0.062932,0.402113,0.839057,-0.763055,0.797887,-0.239057,-0.036945
11.150000,0.402763,0.871598,-0.731165,0.797237,-0.271598,-0.068835,0.401327,0.845337,-0.755990,0.798673,-0.245337,-0.044010
11.200000,0.404894,0.879209,-0.725686,0.795106,-0.279209,-0.074314,0.401151,0.851976,-0.749175,0.798849,-0.251976,-0.050825
11.250000,0.407612,0.886947,-0.720665,0.792388,-0.286947,-0.079335,0.401587,0.858921,-0.742665,0.798413,-0.258921,-0.057335
11.300000,0.410899,0.894766,-0.716133,0.789101,-0.294766,-0.083867,0.402652,0.866245,-0.736408,0.797348,-0.266245,-0.063592
11.350000,0.414736,0.902618,-0.712118,0.785264,-0.302618,-0.087882,0.404295,0.873612,-0.730684,0.795705,-0.273612,-0.069316
11.400000,0.419098,0.910453,-0.708645,0.780902,-0.310453,-0.091355,0.406492,0.881038,-0.725454,0.793508,-0.281038,-0.074546
11.450000,0.423959,0.918224,-0.705736,0.776041,-0.318224,-0.094264,0.409299,0.888711,-0.720588,0.790701,-0.288711,-0.079412
11.500000,0.429289,0.925882,-0.703407,0.770711,-0.325882,-0.096593,0.412793,0.896720,-0.716073,0.787207,-0.296720,-0.083927
11.550000,0.435055,0.933381,-0.701675,0.764945,-0.333381,-0.098325,0.416550,0.904185,-0.712365,0.783450,-0.304185,-0.087635
11.600000,0.441221,0.940674,-0.700548,0.758779,-0.340674,-0.099452,0.420985,0.911947,-0.709038,0.779015,-0.311947,-0.090962
11.650000,0.447750,0.947716,-0.700034,0.752250,-0.347716,-0.099966,0.425845,0.919552,-0.706294,0.774155,-0.319552,-0.093706
11.700000,0.454601,0.954464,-0.700137,0.745399,-0.354464,-0.099863,0.431229,0.927122,-0.704107,0.768771,-0.327122,-0.095893
11.750000,0.461732,0.960876,-0.700856,0.738268,-0.360876,-0.099144,0.437037,0.934523,-0.702515,0.762963,-0.334523,-0.097485
11.800000,0.469098,0.966913,-0.702185,0.730902,-0.366913,-0.097815,0.443214,0.941688,-0.701526,0.756786,-0.341688,-0.098474
11.850000,0.476655,0.972537,-0.704118,0.723345,-0.372537,-0.095882,0.449991,0.948846,-0.701145,0.750009,-0.348846,-0.098855
11.900000,0.484357,0.977715,-0.706642,0.715643,-0.377715,-0.093358,0.456564,0.955193,-0.701371,0.743436,-0.355193,-0.098629
11.950000,0.492154,0.982413,-0.709741,0.707846,-0.382413,-0.090259,0.463669,0.961460,-0.702209,0.736331,-0.361460,-0.097791
12.000000,0.500000,0.986603,-0.713397,0.700000,-0.386603,-0.086603,0.471134,0.967452,-0.703683,0.728866,-0.367452,-0.096317
12.050000,0.507846,0.990259,-0.717587,0.692154,-0.390259,-0.082413,0.478497,0.972815,-0.705681,0.721503,-0.372815,-0.094319
12.100000,0.515643,0.993358,-0.722285,0.684357,-0.393358,-0.077715,0.486291,0.977933,-0.708358,0.713709,-0.377933,-0.091642
12.150000,0.523345,0.995882,-0.727463,0.676655,-0.395882,-0.072537,0.493875,0.982389,-0.711486,0.706125,-0.382389,-0.088514
12.200000,0.530902,0.997815,-0.733087,0.669098,-0.397815,-0.066913,0.501786,0.986493,-0.715293,0.698214,-0.386493,-0.084707
12.250000,0.538268,0.999144,-0.739124,0.661732,-0.399144,-0.060876,0.509393,0.989925,-0.719467,0.690607,-0.389925,-0.080533
12.300000,0.545399,0.999863,-0.745536,0.654601,-0.399863,-0.054464,0.517079,0.992869,-0.724210,0.682921,-0.392869,-0.075790
12.350000,0.552250,0.999966,-0.752284,0.647750,-0.399966,-0.047716,0.524676,0.995244,-0.729432,0.675324,-0.395244,-0.070568
12.400000,0.558779,0.999452,-0.759326,0.641221,-0.399452,-0.040674,0.532238,0.997055,-0.735183,0.667762,-0.397055,-0.064817
12.450000,0.564945,0.998325,-0.766619,0.635055,-0.398325,-0.033381,0.539342,0.998216,-0.741125,0.660658,-0.398216,-0.058875
12.500000,0.570711,0.996593,-0.774118,0.629289,-0.396593,-0.025882,0.546344,0.998798,-0.747546,0.653656,-0.398798,-0.052454
12.550000,0.576041,0.994264,-0.781776,0.623959,-0.394264,-0.018224,0.553167,0.998764,-0.754403,0.646833,-0.398764,-0.045597
12.600000,0.580902,0.991355,-0.789547,0.619098,-0.391355,-0.010453,0.559436,0.998133,-0.761303,0.640564,-0.398133,-0.038697
12.650000,0.585264,0.987882,-0.797382,0.614736,-0.387882,-0.002618,0.565552,0.996866,-0.768686,0.634448,-0.396866,-0.031314
12.700000,0.589101,0.983867,-0.805234,0.610899,-0.383867,0.005234,0.571049,0.995059,-0.775991,0.628951,-0.395059,-0.024009
12.750000,0.592388,0.979335,-0.813053,0.607612,-0.379335,0.013053,0.576223,0.992635,-0.783588,0.623777,-0.392635,-0.016412
12.800000,0.595106,0.974314,-0.820791,0.604894,-0.374314,0.020791,0.580934,0.989633,-0.791301,0.619066,-0.389633,-0.008699
12.850000,0.597237,0.968835,-0.828402,0.602763,-0.368835,0.028402,0.585137,0.986089,-0.799048,0.614863,-0.386089,-0.000952
12.900000,0.598769,0.962932,-0.835837,0.601231,-0.362932,0.035837,0.588887,0.981917,-0.806971,0.611113,-0.381917,0.006971
12.950000,0.599692,0.956641,-0.843051,0.600308,-0.356641,0.043051,0.591949,0.977429,-0.814519,0.608051,-0.377429,0.014519
13.000000,0.600000,0.950000,-0.850000,0.600000,-0.350000,0.050000,0.594517,0.972358,-0.822159,0.605483,-0.372358,0.022159
13.050000,0.599692,0.943051,-0.856641,0.600308,-0.343051,0.056641,0.596501,0.966844,-0.829657,0.603499,-0.366844,0.029657
13.100000,0.598769,0.935837,-0.862932,0.601231,-0.335837,0.062932,0.597904,0.960872,-0.837033,0.602096,-0.360872,0.037033
13.150000,0.597237,0.928402,-0.868835,0.602763,-0.328402,0.068835,0.598671,0.954668,-0.844003,0.601329,-0.354668,0.044003
13.200000,0.595106,0.920791,-0.874314,0.604894,-0.320791,0.074314,0.598848,0.948027,-0.850821,0.601152,-0.348027,0.050821
13.250000,0.592388,0.913053,-0.879335,0.607612,-0.313053,0.079335,0.598413,0.941080,-0.857332,0.601587,-0.341080,0.057332
13.300000,0.589101,0.905234,-0.883867,0.610899,-0.305234,0.083867,0.597371,0.933888,-0.863483,0.602629,-0.333888,0.063483
13.350000,0.585264,0.897382,-0.887882,0.614736,-0.297382,0.087882,0.595729,0.926490,-0.869239,0.604271,-0.326490,0.069239
13.400000,0.580902,0.889547,-0.891355,0.619098,-0.289547,0.091355,0.593503,0.918948,-0.874556,0.606497,-0.318948,0.074556
13.450000,0.576041,0.881776,-0.894264,0.623959,-0.281776,0.094264,0.590698,0.911280,-0.879418,0.609302,-0.311280,0.079418
13.500000,0.570711,0.874118,-0.896593,0.629289,-0.274118,0.096593,0.587339,0.903552,-0.883787,0.612661,-0.303552,0.083787
13.550000,0.564945,0.866619,-0.898325,0.635055,-0.266619,0.098325,0.583434,0.895790,-0.887645,0.616566,-0.295790,0.087645
13.600000,0.558779,0.859326,-0.899452,0.641221,-0.259326,0.099452,0.579025,0.888065,-0.890959,0.620975,-0.288065,0.090959
13.650000,0.552250,0.852284,-0.899966,0.647750,-0.252284,0.099966,0.574104,0.880383,-0.893722,0.625896,-0.280383,0.093722
13.700000,0.545399,0.845536,-0.899863,0.654601,-0.245536,0.099863,0.568741,0.872840,-0.895902,0.631259,-0.272840,0.095902
13.750000,0.538268,0.839124,-0.899144,0.661732,-0.239124,0.099144,0.562945,0.865455,-0.897491,0.637055,-0.265455,0.097491
13.800000,0.530902,0.833087,-0.897815,0.669098,-0.233087,0.097815,0.556660,0.858172,-0.898489,0.643340,-0.258172,0.098489
13.850000,0.523345,0.827463,-0.895882,0.676655,-0.227463,0.095882,0.550252,0.851395,-0.898857,0.649748,-0.251395,0.098857
13.900000,0.515643,0.822285,-0.893358,0.684357,-0.222285,0.093358,0.543408,0.844783,-0.898625,0.656592,-0.244783,0.098625
13.950000,0.507846,0.817587,-0.890259,0.692154,-0.217587,0.090259,0.536300,0.838515,-0.897785,0.663700,-0.238515,0.097785
14.000000,0.500000,0.813397,-0.886603,0.700000,-0.213397,0.086603,0.528982,0.832636,-0.896346,0.671018,-0.232636,0.096346
14.050000,0.492154,0.809741,-0.882413,0.707846,-0.209741,0.082413,0.521470,0.827162,-0.894308,0.678530,-0.227162,0.094308
14.100000,0.484357,0.806642,-0.877715,0.715643,-0.206642,0.077715,0.513828,0.822140,-0.891688,0.686172,-0.222140,0.091688
14.150000,0.476655,0.804118,-0.872537,0.723345,-0.204118,0.072537,0.506117,0.817605,-0.888512,0.693883,-0.217605,0.088512
14.200000,0.469098,0.802185,-0.866913,0.730902,-0.202185,0.066913,0.498349,0.813570,-0.884779,0.701651,-0.213570,0.084779
14.250000,0.461732,0.800856,-0.860876,0.738268,-0.200856,0.060876,0.490469,0.810017,-0.880453,0.709531,-0.210017,0.080453
14.300000,0.454601,0.800137,-0.854464,0.745399,-0.200137,0.054464,0.482918,0.807129,-0.875788,0.717082,-0.207129,0.075788
14.350000,0.447750,0.800034,-0.847716,0.752250,-0.200034,0.047716,0.475322,0.804755,-0.870567,0.724678,-0.204755,0.070567
14.400000,0.441221,0.800548,-0.840674,0.758779,-0.200548,0.040674,0.467882,0.802969,-0.864913,0.732118,-0.202969,0.064913
14.450000,0.435055,0.801675,-0.833381,0.764945,-0.201675,0.033381,0.460524,0.801768,-0.858757,0.739476,-0.201768,0.058757
14.500000,0.429289,0.803407,-0.825882,0.770711,-0.203407,0.025882,0.453661,0.801201,-0.852460,0.746339,-0.201201,0.052460
14.550000,0.423959,0.805736,-0.818224,0.776041,-0.205736,0.018224,0.446955,0.801228,-0.845727,0.753045,-0.201228,0.045727
14.600000,0.419098,0.808645,-0.810453,0.780902,-0.208645,0.010453,0.440594,0.801858,-0.838736,0.759406,-0.201858,0.038736
14.650000,0.414736,0.812118,-0.802618,0.785264,-0.212118,0.002618,0.434582,0.803097,-0.831485,0.765418,-0.203097,0.031485
14.700000,0.410899,0.816133,-0.794766,0.789101,-0.216133,-0.005234,0.428992,0.804920,-0.824072,0.771008,-0.204920,0.024072
14.750000,0.407612,0.820665,-0.786947,0.792388,-0.220665,-0.013053,0.423801,0.807352,-0.816449,0.776199,-0.207352,0.016449
14.800000,0.404894,0.825686,-0.779209,0.795106,-0.225686,-0.020791,0.419080,0.810359,-0.808721,0.780920,-0.210359,0.008721
14.850000,0.402763,0.831165,-0.771598,0.797237,-0.231165,-0.028402,0.414871,0.813908,-0.800963,0.785129,-0.213908,0.000963
14.900000,0.401231,0.837068,-0.764163,0.798769,-0.237068,-0.035837,0.411184,0.817995,-0.793189,0.788816,-0.217995,-0.006811
14.950000,0.400308,0.843359,-0.756949,0.799692,-0.243359,-0.043051,0.408056,0.822565,-0.785491,0.791944,-0.222565,-0.014509
15.000000,0.400000,0.850000,-0.750000,0.800000,-0.250000,-0.050000,0.405486,0.827638,-0.777847,0.794514,-0.227638,-0.022153
15.050000,0.400308,0.856949,-0.743359,0.799692,-0.256949,-0.056641,0.403428,0.833399,-0.770029,0.796572,-0.233399,-0.029971
15.100000,0.401231,0.864163,-0.737068,0.798769,-0.264163,-0.062932,0.402115,0.839032,-0.763083,0.797885,-0.239032,-0.036917
15.150000,0.402763,0.871598,-0.731165,0.797237,-0.271598,-0.068835,0.401330,0.845350,-0.755980,0.798670,-0.245350,-0.044020
15.200000,0.404894,0.879209,-0.725686,0.795106,-0.279209,-0.074314,0.401154,0.851997,-0.749158,0.798846,-0.251997,-0.050842
15.250000,0.407612,0.886947,-0.720665,0.792388,-0.286947,-0.079335,0.401584,0.858912,-0.742672,0.798416,-0.258912,-0.057328
15.300000,0.410899,0.894766,-0.716133,0.789101,-0.294766,-0.083867,0.402627,0.866108,-0.736519,0.797373,-0.266108,-0.063481
15.350000,0.414736,0.902618,-0.712118,0.785264,-0.302618,-0.087882,0.404270,0.873507,-0.730763,0.795730,-0.273507,-0.069237
15.400000,0.419098,0.910453,-0.708645,0.780902,-0.310453,-0.091355,0.406543,0.881188,-0.725354,0.793457,-0.281188,-0.074646
15.450000,0.423959,0.918224,-0.705736,0.776041,-0.318224,-0.094264,0.409296,0.888707,-0.720589,0.790704,-0.288707,-0.079411
15.500000,0.429289,0.925882,-0.703407,0.770711,-0.325882,-0.096593,0.412670,0.896463,-0.716207,0.787330,-0.296463,-0.083793
15.550000,0.435055,0.933381,-0.701675,0.764945,-0.333381,-0.098325,0.416664,0.904389,-0.712275,0.783336,-0.304389,-0.087725
15.600000,0.441221,0.940674,-0.700548,0.758779,-0.340674,-0.099452,0.420996,0.911967,-0.709030,0.779004,-0.311967,-0.090970
15.650000,0.447750,0.947716,-0.700034,0.752250,-0.347716,-0.099966,0.425993,0.919762,-0.706231,0.774007,-0.319762,-0.093769
15.700000,0.454601,0.954464,-0.700137,0.745399,-0.354464,-0.099863,0.431251,0.927153,-0.704098,0.768749,-0.327153,-0.095902
15.750000,0.461732,0.960876,-0.700856,0.738268,-0.360876,-0.099144,0.437160,0.934675,-0.702485,0.762840,-0.334675,-0.097515
15.800000,0.469098,0.966913,-0.702185,0.730902,-0.366913,-0.097815,0.443417,0.941916,-0.701502,0.756583,-0.341916,-0.098498
15.850000,0.476655,0.972537,-0.704118,0.723345,-0.372537,-0.095882,0.449730,0.948587,-0.701142,0.750270,-0.348587,-0.098858
15.900000,0.484357,0.977715,-0.706642,0.715643,-0.377715,-0.093358,0.456581,0.955207,-0.701374,0.743419,-0.355207,-0.098626
15.950000,0.492154,0.982413,-0.709741,0.707846,-0.382413,-0.090259,0.463694,0.961479,-0.702215,0.736306,-0.361479,-0.097785
16.000000,0.500000,0.986603,-0.713397,0.700000,-0.386603,-0.086603,0.471012,0.967359,-0.703653,0.728988,-0.367359,-0.096347
16.050000,0.507846,0.990259,-0.717587,0.692154,-0.390259,-0.082413,0.478527,0.972835,-0.705692,0.721473,-0.372835,-0.094308
16.100000,0.515643,0.993358,-0.722285,0.684357,-0.393358,-0.077715,0.486170,0.977859,-0.708311,0.713830,-0.377859,-0.091689
16.150000,0.523345,0.995882,-0.727463,0.676655,-0.395882,-0.072537,0.493896,0.982400,-0.711496,0.706104,-0.382400,-0.088504
16.200000,0.530902,0.997815,-0.733087,0.669098,-0.397815,-0.066913,0.501658,0.986433,-0.715225,0.698342,-0.386433,-0.084775
16.250000,0.538268,0.999144,-0.739124,0.661732,-0.399144,-0.060876,0.509396,0.989928,-0.719468,0.690604,-0.389928,-0.080532
16.300000,0.545399,0.999863,-0.745536,0.654601,-0.399863,-0.054464,0.517095,0.992874,-0.724220,0.682905,-0.392874,-0.075780
16.350000,0.552250,0.999966,-0.752284,0.647750,-0.399966,-0.047716,0.524685,0.995247,-0.729438,0.675315,-0.395247,-0.070562
16.400000,0.558779,0.999452,-0.759326,0.641221,-0.399452,-0.040674,0.532098,0.997029,-0.735068,0.667902,-0.397029,-0.064932
16.450000,0.564945,0.998325,-0.766619,0.635055,-0.398325,-0.033381,0.539346,0.998217,-0.741129,0.660654,-0.398217,-0.058871
16.500000,0.570711,0.996593,-0.774118,0.629289,-0.396593,-0.025882,0.546337,0.998799,-0.747538,0.653663,-0.398799,-0.052462
16.550000,0.576041,0.994264,-0.781776,0.623959,-0.394264,-0.018224,0.553053,0.998770,-0.754283,0.646947,-0.398770,-0.045717
16.600000,0.580902,0.991355,-0.789547,0.619098,-0.391355,-0.010453,0.559438,0.998133,-0.761306,0.640562,-0.398133,-0.038694
16.650000,0.585264,0.987882,-0.797382,0.614736,-0.387882,-0.002618,0.565456,0.996890,-0.768566,0.634544,-0.396890,-0.031434
16.700000,0.589101,0.983867,-0.805234,0.610899,-0.383867,0.005234,0.571068,0.995050,-0.776019,0.628932,-0.395050,-0.023981
16.750000,0.592388,0.979335,-0.813053,0.607612,-0.379335,0.013053,0.576233,0.992630,-0.783603,0.623767,-0.392630,-0.016397
16.800000,0.595106,0.974314,-0.820791,0.604894,-0.374314,0.020791,0.580940,0.989630,-0.791310,0.619060,-0.389630,-0.008690
16.850000,0.597237,0.968835,-0.828402,0.602763,-0.368835,0.028402,0.585135,0.986094,-0.799042,0.614865,-0.386094,-0.000958
16.900000,0.598769,0.962932,-0.835837,0.601231,-0.362932,0.035837,0.588811,0.982022,-0.806790,0.611189,-0.382022,0.006790
16.950000,0.599692,0.956641,-0.843051,0.600308,-0.356641,0.043051,0.591945,0.977436,-0.814509,0.608055,-0.377436,0.014509
17.000000,0.600000,0.950000,-0.850000,0.600000,-0.350000,0.050000,0.594512,0.972373,-0.822139,0.605488,-0.372373,0.022139
17.050000,0.599692,0.943051,-0.856641,0.600308,-0.343051,0.056641,0.596498,0.966853,-0.829645,0.603502,-0.366853,0.029645
17.100000,0.598769,0.935837,-0.862932,0.601231,-0.335837,0.062932,0.597885,0.960954,-0.836931,0.602115,-0.360954,0.036931
17.150000,0.597237,0.928402,-0.868835,0.602763,-0.328402,0.068835,0.598671,0.954655,-0.844015,0.601329,-0.354655,0.044015
17.200000,0.595106,0.920791,-0.874314,0.604894,-0.320791,0.074314,0.598845,0.947896,-0.850949,0.601155,-0.347896,0.050949
17.250000,0.592388,0.913053,-0.879335,0.607612,-0.313053,0.079335,0.598415,0.941085,-0.857330,0.601585,-0.341085,0.057330
17.300000,0.589101,0.905234,-0.883867,0.610899,-0.305234,0.083867,0.597372,0.933890,-0.863482,0.602628,-0.333890,0.063482
17.350000,0.585264,0.897382,-0.887882,0.614736,-0.297382,0.087882,0.595734,0.926506,-0.869229,0.604266,-0.326506,0.069229
17.400000,0.580902,0.889547,-0.891355,0.619098,-0.289547,0.091355,0.593500,0.918941,-0.874559,0.606500,-0.318941,0.074559
17.450000,0.576041,0.881776,-0.894264,0.623959,-0.281776,0.094264,0.590704,0.911292,-0.879412,0.609296,-0.311292,0.079412
17.500000,0.570711,0.874118,-0.896593,0.629289,-0.274118,0.096593,0.587329,0.903536,-0.883793,0.612671,-0.303536,0.083793
17.550000,0.564945,0.866619,-0.898325,0.635055,-0.266619,0.098325,0.583427,0.895777,-0.887650,0.616573,-0.295777,0.087650
17.600000,0.558779,0.859326,-0.899452,0.641221,-0.259326,0.099452,0.579010,0.888043,-0.890967,0.620990,-0.288043,0.090967
17.650000,0.552250,0.852284,-0.899966,0.647750,-0.252284,0.099966,0.574095,0.880369,-0.893726,0.625905,-0.280369,0.093726
17.700000,0.545399,0.845536,-0.899863,0.654601,-0.245536,0.099863,0.568752,0.872851,-0.895901,0.631248,-0.272851,0.095901
17.750000,0.538268,0.839124,-0.899144,0.661732,-0.239124,0.099144,0.562951,0.865461,-0.897490,0.637049,-0.265461,0.097490
17.800000,0.530902,0.833087,-0.897815,0.669098,-0.233087,0.097815,0.556778,0.858301,-0.898477,0.643222,-0.258301,0.098477
17.850000,0.523345,0.827463,-0.895882,0.676655,-0.227463,0.095882,0.550258,0.851401,-0.898857,0.649742,-0.251401,0.098857
17.900000,0.515643,0.822285,-0.893358,0.684357,-0.222285,0.093358,0.543412,0.844786,-0.898625,0.656588,-0.244786,0.098625
17.950000,0.507846,0.817587,-0.890259,0.692154,-0.217587,0.090259,0.536326,0.838535,-0.897792,0.663674,-0.238535,0.097792
18.000000,0.500000,0.813397,-0.886603,0.700000,-0.213397,0.086603,0.528986,0.832640,-0.896346,0.671014,-0.232640,0.096346
18.050000,0.492154,0.809741,-0.882413,0.707846,-0.209741,0.082413,0.521488,0.827174,-0.894314,0.678512,-0.227174,0.094314
18.100000,0.484357,0.806642,-0.877715,0.715643,-0.206642,0.077715,0.513839,0.822147,-0.891692,0.686161,-0.222147,0.091692
18.150000,0.476655,0.804118,-0.872537,0.723345,-0.204118,0.072537,0.506109,0.817603,-0.888506,0.693891,-0.217603,0.088506
18.200000,0.469098,0.802185,-0.866913,0.730902,-0.202185,0.066913,0.498345,0.813569,-0.884776,0.701655,-0.213569,0.084776
18.250000,0.461732,0.800856,-0.860876,0.738268,-0.200856,0.060876,0.490592,0.810069,-0.880523,0.709408,-0.210069,0.080523
18.300000,0.454601,0.800137,-0.854464,0.745399,-0.200137,0.054464,0.482910,0.807127,-0.875784,0.717090,-0.207127,0.075784
18.350000,0.447750,0.800034,-0.847716,0.752250,-0.200034,0.047716,0.475318,0.804754,-0.870564,0.724682,-0.204754,0.070564
18.400000,0.441221,0.800548,-0.840674,0.758779,-0.200548,0.040674,0.467905,0.802971,-0.864934,0.732095,-0.202971,0.064934
18.450000,0.435055,0.801675,-0.833381,0.764945,-0.201675,0.033381,0.460656,0.801783,-0.858873,0.739344,-0.201783,0.058873
18.500000,0.429289,0.803407,-0.825882,0.770711,-0.203407,0.025882,0.453664,0.801201,-0.852463,0.746336,-0.201201,0.052463
18.550000,0.423959,0.805736,-0.818224,0.776041,-0.205736,0.018224,0.446993,0.801222,-0.845771,0.753007,-0.201222,0.045771
18.600000,0.419098,0.808645,-0.810453,0.780902,-0.208645,0.010453,0.440500,0.801874,-0.838626,0.759500,-0.201874,0.038626
18.650000,0.414736,0.812118,-0.802618,0.785264,-0.212118,0.002618,0.434581,0.803100,-0.831481,0.765419,-0.203100,0.031481
18.700000,0.410899,0.816133,-0.794766,0.789101,-0.216133,-0.005234,0.428953,0.804944,-0.824009,0.771047,-0.204944,0.024009
18.750000,0.407612,0.820665,-0.786947,0.792388,-0.220665,-0.013053,0.423778,0.807367,-0.816411,0.776222,-0.207367,0.016411
18.800000,0.404894,0.825686,-0.779209,0.795106,-0.225686,-0.020791,0.418992,0.810422,-0.808570,0.781008,-0.210422,0.008570
18.850000,0.402763,0.831165,-0.771598,0.797237,-0.231165,-0.028402,0.414865,0.813911,-0.800955,0.785135,-0.213911,0.000955
18.900000,0.401231,0.837068,-0.764163,0.798769,-0.237068,-0.035837,0.411181,0.817997,-0.793184,0.788819,-0.217997,-0.006816
18.950000,0.400308,0.843359,-0.756949,0.799692,-0.243359,-0.043051,0.408046,0.822586,-0.785460,0.791954,-0.222586,-0.014540
19.000000,0.400000,0.850000,-0.750000,0.800000,-0.250000,-0.050000,0.405483,0.827639,-0.777844,0.794517,-0.227639,-0.022156
19.050000,0.400308,0.856949,-0.743359,0.799692,-0.256949,-0.056641,0.403467,0.833268,-0.770199,0.796533,-0.233268,-0.029801
19.100000,0.401231,0.864163,-0.737068,0.798769,-0.264163,-0.062932,0.402113,0.839039,-0.763074,0.797887,-0.239039,-0.036926
19.150000,0.402763,0.871598,-0.731165,0.797237,-0.271598,-0.068835,0.401328,0.845334,-0.755994,0.798672,-0.245334,-0.044006
19.200000,0.404894,0.879209,-0.725686,0.795106,-0.279209,-0.074314,0.401153,0.851987,-0.749166,0.798847,-0.251987,-0.050834
19.250000,0.407612,0.886947,-0.720665,0.792388,-0.286947,-0.079335,0.401585,0.858914,-0.742670,0.798415,-0.258914,-0.057330
19.300000,0.410899,0.894766,-0.716133,0.789101,-0.294766,-0.083867,0.402646,0.866217,-0.736429,0.797354,-0.266217,-0.063571
19.350000,0.414736,0.902618,-0.712118,0.785264,-0.302618,-0.087882,0.404248,0.873441,-0.730807,0.795752,-0.273441,-0.069193
19.400000,0.419098,0.910453,-0.708645,0.780902,-0.310453,-0.091355,0.406490,0.881028,-0.725462,0.793510,-0.281028,-0.074538
19.450000,0.423959,0.918224,-0.705736,0.776041,-0.318224,-0.094264,0.409304,0.888718,-0.720586,0.790696,-0.288718,-0.079414
19.500000,0.429289,0.925882,-0.703407,0.770711,-0.325882,-0.096593,0.412667,0.896454,-0.716213,0.787333,-0.296454,-0.083787
19.550000,0.435055,0.933381,-0.701675,0.764945,-0.333381,-0.098325,0.416559,0.904198,-0.712361,0.783441,-0.304198,-0.087639
19.600000,0.441221,0.940674,-0.700548,0.758779,-0.340674,-0.099452,0.420972,0.911929,-0.709044,0.779028,-0.311929,-0.090956
19.650000,0.447750,0.947716,-0.700034,0.752250,-0.347716,-0.099966,0.425882,0.919599,-0.706283,0.774118,-0.319599,-0.093717
19.700000,0.454601,0.954464,-0.700137,0.745399,-0.354464,-0.099863,0.431247,0.927145,-0.704102,0.768753,-0.327145,-0.095898
19.750000,0.461732,0.960876,-0.700856,0.738268,-0.360876,-0.099144,0.437048,0.934537,-0.702512,0.762952,-0.334537,-0.097488
19.800000,0.469098,0.966913,-0.702185,0.730902,-0.366913,-0.097815,0.443208,0.941685,-0.701524,0.756792,-0.341685,-0.098476
19.850000,0.476655,0.972537,-0.704118,0.723345,-0.372537,-0.095882,0.449748,0.948603,-0.701145,0.750252,-0.348603,-0.098855
19.900000,0.484357,0.977715,-0.706642,0.715643,-0.377715,-0.093358,0.456975,0.955570,-0.701406,0.743025,-0.355570,-0.098594
19.950000,0.492154,0.982413,-0.709741,0.707846,-0.382413,-0.090259,0.463647,0.961445,-0.702202,0.736353,-0.361445,-0.097798
20.000000,0.500000,0.986603,-0.713397,0.700000,-0.386603,-0.086603,0.470999,0.967349,-0.703650,0.729001,-0.367349,-0.096350
20.050000,0.507846,0.990259,-0.717587,0.692154,-0.390259,-0.082413,0.478519,0.972829,-0.705690,0.721481,-0.372829,-0.094310
20.100000,0.515643,0.993358,-0.722285,0.684357,-0.393358,-0.077715,0.486165,0.977855,-0.708310,0.713835,-0.377855,-0.091690
20.150000,0.523345,0.995882,-0.727463,0.676655,-0.395882,-0.072537,0.493893,0.982398,-0.711495,0.706107,-0.382398,-0.088505
20.200000,0.530902,0.997815,-0.733087,0.669098,-0.397815,-0.066913,0.501645,0.986427,-0.715218,0.698355,-0.386427,-0.084782
20.250000,0.538268,0.999144,-0.739124,0.661732,-0.399144,-0.060876,0.509391,0.989925,-0.719466,0.690609,-0.389925,-0.080534
20.300000,0.545399,0.999863,-0.745536,0.654601,-0.399863,-0.054464,0.517092,0.992873,-0.724219,0.682908,-0.392873,-0.075781
20.350000,0.552250,0.999966,-0.752284,0.647750,-0.399966,-0.047716,0.524684,0.995246,-0.729438,0.675316,-0.395246,-0.070562
20.400000,0.558779,0.999452,-0.759326,0.641221,-0.399452,-0.040674,0.532254,0.997057,-0.735197,0.667746,-0.397057,-0.064803
20.450000,0.564945,0.998325,-0.766619,0.635055,-0.398325,-0.033381,0.539500,0.998235,-0.741266,0.660500,-0.398235,-0.058734
20.500000,0.570711,0.996593,-0.774118,0.629289,-0.396593,-0.025882,0.546346,0.998799,-0.747547,0.653654,-0.398799,-0.052453
20.550000,0.576041,0.994264,-0.781776,0.623959,-0.394264,-0.018224,0.553047,0.998773,-0.754275,0.646953,-0.398773,-0.045725
20.600000,0.580902,0.991355,-0.789547,0.619098,-0.391355,-0.010453,0.559435,0.998134,-0.761301,0.640565,-0.398134,-0.038699
20.650000,0.585264,0.987882,-0.797382,0.614736,-0.387882,-0.002618,0.565454,0.996891,-0.768563,0.634546,-0.396891,-0.031437
20.700000,0.589101,0.983867,-0.805234,0.610899,-0.383867,0.005234,0.571049,0.995061,-0.775989,0.628951,-0.395061,-0.024011
20.750000,0.592388,0.979335,-0.813053,0.607612,-0.379335,0.013053,0.576231,0.992630,-0.783601,0.623769,-0.392630,-0.016399
20.800000,0.595106,0.974314,-0.820791,0.604894,-0.374314,0.020791,0.580931,0.989638,-0.791293,0.619069,-0.389638,-0.008707
20.850000,0.597237,0.968835,-0.828402,0.602763,-0.368835,0.028402,0.585199,0.986030,-0.799169,0.614801,-0.386030,-0.000831
20.900000,0.598769,0.962932,-0.835837,0.601231,-0.362932,0.035837,0.588812,0.982016,-0.806796,0.611188,-0.382016,0.006796
20.950000,0.599692,0.956641,-0.843051,0.600308,-0.356641,0.043051,0.591950,0.977422,-0.814528,0.608050,-0.377422,0.014528
21.000000,0.600000,0.950000,-0.850000,0.600000,-0.350000,0.050000,0.594558,0.972257,-0.822301,0.605442,-0.372257,0.022301
21.050000,0.599692,0.943051,-0.856641,0.600308,-0.343051,0.056641,0.596501,0.966842,-0.829660,0.603499,-0.366842,0.029660
21.100000,0.598769,0.935837,-0.862932,0.601231,-0.335837,0.062932,0.597907,0.960817,-0.837090,0.602093,-0.360817,0.037090
21.150000,0.597237,0.928402,-0.868835,0.602763,-0.328402,0.068835,0.598673,0.954638,-0.844034,0.601327,-0.354638,0.044034
21.200000,0.595106,0.920791,-0.874314,0.604894,-0.320791,0.074314,0.598847,0.947997,-0.850851,0.601153,-0.347997,0.050851
21.250000,0.592388,0.913053,-0.879335,0.607612,-0.313053,0.079335,0.598412,0.941062,-0.857350,0.601588,-0.341062,0.057350
21.300000,0.589101,0.905234,-0.883867,0.610899,-0.305234,0.083867,0.597371,0.933877,-0.863494,0.602629,-0.333877,0.063494
21.350000,0.585264,0.897382,-0.887882,0.614736,-0.297382,0.087882,0.595729,0.926484,-0.869245,0.604271,-0.326484,0.069245
21.400000,0.580902,0.889547,-0.891355,0.619098,-0.289547,0.091355,0.593496,0.918928,-0.874568,0.606504,-0.318928,0.074568
21.450000,0.576041,0.881776,-0.894264,0.623959,-0.281776,0.094264,0.590695,0.911270,-0.879424,0.609305,-0.311270,0.079424
21.500000,0.570711,0.874118,-0.896593,0.629289,-0.274118,0.096593,0.587340,0.903552,-0.883788,0.612660,-0.303552,0.083788
21.550000,0.564945,0.866619,-0.898325,0.635055,-0.266619,0.098325,0.583357,0.895647,-0.887711,0.616643,-0.295647,0.087711
21.600000,0.558779,0.859326,-0.899452,0.641221,-0.259326,0.099452,0.579022,0.888061,-0.890961,0.620978,-0.288061,0.090961
21.650000,0.552250,0.852284,-0.899966,0.647750,-0.252284,0.099966,0.574103,0.880380,-0.893723,0.625897,-0.280380,0.093723
21.700000,0.545399,0.845536,-0.899863,0.654601,-0.245536,0.099863,0.568732,0.872828,-0.895904,0.631268,-0.272828,0.095904
21.750000,0.538268,0.839124,-0.899144,0.661732,-0.239124,0.099144,0.562939,0.865448,-0.897492,0.637061,-0.265448,0.097492
21.800000,0.530902,0.833087,-0.897815,0.669098,-0.233087,0.097815,0.556775,0.858297,-0.898478,0.643225,-0.258297,0.098478
21.850000,0.523345,0.827463,-0.895882,0.676655,-0.227463,0.095882,0.550242,0.851385,-0.898856,0.649758,-0.251385,0.098856
21.900000,0.515643,0.822285,-0.893358,0.684357,-0.222285,0.093358,0.543402,0.844777,-0.898625,0.656598,-0.244777,0.098625
21.950000,0.507846,0.817587,-0.890259,0.692154,-0.217587,0.090259,0.536324,0.838532,-0.897792,0.663676,-0.238532,0.097792
22.000000,0.500000,0.813397,-0.886603,0.700000,-0.213397,0.086603,0.528984,0.832638,-0.896346,0.671016,-0.232638,0.096346
22.050000,0.492154,0.809741,-0.882413,0.707846,-0.209741,0.082413,0.521471,0.827163,-0.894308,0.678529,-0.227163,0.094308
22.100000,0.484357,0.806642,-0.877715,0.715643,-0.206642,0.077715,0.513829,0.822140,-0.891688,0.686171,-0.222140,0.091688
22.150000,0.476655,0.804118,-0.872537,0.723345,-0.204118,0.072537,0.506117,0.817606,-0.888512,0.693883,-0.217606,0.088512
22.200000,0.469098,0.802185,-0.866913,0.730902,-0.202185,0.066913,0.498386,0.813585,-0.884801,0.701614,-0.213585,0.084801
22.250000,0.461732,0.800856,-0.860876,0.738268,-0.200856,0.060876,0.490477,0.810021,-0.880456,0.709523,-0.210021,0.080456
22.300000,0.454601,0.800137,-0.854464,0.745399,-0.200137,0.054464,0.482923,0.807132,-0.875791,0.717077,-0.207132,0.075791
22.350000,0.447750,0.800034,-0.847716,0.752250,-0.200034,0.047716,0.475340,0.804759,-0.870580,0.724660,-0.204759,0.070580
22.400000,0.441221,0.800548,-0.840674,0.758779,-0.200548,0.040674,0.467892,0.802972,-0.864921,0.732108,-0.202972,0.064921
22.450000,0.435055,0.801675,-0.833381,0.764945,-0.201675,0.033381,0.460648,0.801784,-0.858865,0.739352,-0.201784,0.058865
22.500000,0.429289,0.803407,-0.825882,0.770711,-0.203407,0.025882,0.453650,0.801202,-0.852448,0.746350,-0.201202,0.052448
22.550000,0.423959,0.805736,-0.818224,0.776041,-0.205736,0.018224,0.446958,0.801227,-0.845731,0.753042,-0.201227,0.045731
22.600000,0.419098,0.808645,-0.810453,0.780902,-0.208645,0.010453,0.440578,0.801863,-0.838715,0.759422,-0.201863,0.038715
22.650000,0.414736,0.812118,-0.802618,0.785264,-0.212118,0.002618,0.434574,0.803099,-0.831475,0.765426,-0.203099,0.031475
22.700000,0.410899,0.816133,-0.794766,0.789101,-0.216133,-0.005234,0.428959,0.804938,-0.824021,0.771041,-0.204938,0.024021
22.750000,0.407612,0.820665,-0.786947,0.792388,-0.220665,-0.013053,0.423774,0.807369,-0.816405,0.776226,-0.207369,0.016405
22.800000,0.404894,0.825686,-0.779209,0.795106,-0.225686,-0.020791,0.419064,0.810369,-0.808695,0.780936,-0.210369,0.008695
22.850000,0.402763,0.831165,-0.771598,0.797237,-0.231165,-0.028402,0.414857,0.813921,-0.800936,0.785143,-0.213921,0.000936
22.900000,0.401231,0.837068,-0.764163,0.798769,-0.237068,-0.035837,0.411175,0.818002,-0.793173,0.788825,-0.218002,-0.006827
22.950000,0.400308,0.843359,-0.756949,0.799692,-0.243359,-0.043051,0.408043,0.822589,-0.785454,0.791957,-0.222589,-0.014546
23.000000,0.400000,0.850000,-0.750000,0.800000,-0.250000,-0.050000,0.405356,0.827935,-0.777421,0.794644,-0.227935,-0.022579
23.050000,0.400308,0.856949,-0.743359,0.799692,-0.256949,-0.056641,0.403502,0.833124,-0.770378,0.796498,-0.233124,-0.029622
23.100000,0.401231,0.864163,-0.737068,0.798769,-0.264163,-0.062932,0.402113,0.839061,-0.763052,0.797887,-0.239061,-0.036948
23.150000,0.402763,0.871598,-0.731165,0.797237,-0.271598,-0.068835,0.401329,0.845368,-0.755961,0.798671,-0.245368,-0.044039
23.200000,0.404894,0.879209,-0.725686,0.795106,-0.279209,-0.074314,0.401154,0.852105,-0.749049,0.798846,-0.252105,-0.050951
23.250000,0.407612,0.886947,-0.720665,0.792388,-0.286947,-0.079335,0.401584,0.858915,-0.742669,0.798416,-0.258915,-0.057331
23.300000,0.410899,0.894766,-0.716133,0.789101,-0.294766,-0.083867,0.402627,0.866110,-0.736518,0.797373,-0.266110,-0.063482
23.350000,0.414736,0.902618,-0.712118,0.785264,-0.302618,-0.087882,0.404270,0.873508,-0.730762,0.795730,-0.273508,-0.069238
23.400000,0.419098,0.910453,-0.708645,0.780902,-0.310453,-0.091355,0.406498,0.881056,-0.725442,0.793502,-0.281056,-0.074558
23.450000,0.423959,0.918224,-0.705736,0.776041,-0.318224,-0.094264,0.409309,0.888734,-0.720575,0.790691,-0.288734,-0.079425
23.500000,0.429289,0.925882,-0.703407,0.770711,-0.325882,-0.096593,0.412649,0.896427,-0.716222,0.787351,-0.296427,-0.083778
23.550000,0.435055,0.933381,-0.701675,0.764945,-0.333381,-0.098325,0.416558,0.904198,-0.712360,0.783442,-0.304198,-0.087640
23.600000,0.441221,0.940674,-0.700548,0.758779,-0.340674,-0.099452,0.420990,0.911955,-0.709035,0.779010,-0.311955,-0.090965
23.650000,0.447750,0.947716,-0.700034,0.752250,-0.347716,-0.099966,0.425893,0.919614,-0.706279,0.774107,-0.319614,-0.093721
23.700000,0.454601,0.954464,-0.700137,0.745399,-0.354464,-0.099863,0.431255,0.927156,-0.704099,0.768745,-0.327156,-0.095901
23.750000,0.461732,0.960876,-0.700856,0.738268,-0.360876,-0.099144,0.437042,0.934531,-0.702511,0.762958,-0.334531,-0.097489
23.800000,0.469098,0.966913,-0.702185,0.730902,-0.366913,-0.097815,0.443514,0.942020,-0.701494,0.756486,-0.342020,-0.098506
23.850000,0.476655,0.972537,-0.704118,0.723345,-0.372537,-0.095882,0.449719,0.948578,-0.701141,0.750281,-0.348578,-0.098859
23.900000,0.484357,0.977715,-0.706642,0.715643,-0.377715,-0.093358,0.456679,0.955299,-0.701380,0.743321,-0.355299,-0.098620
23.950000,0.492154,0.982413,-0.709741,0.707846,-0.382413,-0.090259,0.463664,0.961455,-0.702208,0.736336,-0.361455,-0.097792
24.000000,0.500000,0.986603,-0.713397,0.700000,-0.386603,-0.086603,0.471156,0.967467,-0.703689,0.728844,-0.367467,-0.096311
24.050000,0.507846,0.990259,-0.717587,0.692154,-0.390259,-0.082413,0.478499,0.972817,-0.705682,0.721501,-0.372817,-0.094318
24.100000,0.515643,0.993358,-0.722285,0.684357,-0.393358,-0.077715,0.486153,0.977848,-0.708306,0.713847,-0.377848,-0.091694
24.150000,0.523345,0.995882,-0.727463,0.676655,-0.395882,-0.072537,0.493873,0.982388,-0.711485,0.706127,-0.382388,-0.088515
24.200000,0.530902,0.997815,-0.733087,0.669098,-0.397815,-0.066913,0.501631,0.986420,-0.715211,0.698369,-0.386420,-0.084789
24.250000,0.538268,0.999144,-0.739124,0.661732,-0.399144,-0.060876,0.509380,0.989920,-0.719460,0.690620,-0.389920,-0.080540
24.300000,0.545399,0.999863,-0.745536,0.654601,-0.399863,-0.054464,0.517059,0.992863,-0.724196,0.682941,-0.392863,-0.075804
24.350000,0.552250,0.999966,-0.752284,0.647750,-0.399966,-0.047716,0.524664,0.995240,-0.729424,0.675336,-0.395240,-0.070576
24.400000,0.558779,0.999452,-0.759326,0.641221,-0.399452,-0.040674,0.532110,0.997028,-0.735082,0.667890,-0.397028,-0.064918
24.450000,0.564945,0.998325,-0.766619,0.635055,-0.398325,-0.033381,0.539329,0.998216,-0.741114,0.660671,-0.398216,-0.058886
24.500000,0.570711,0.996593,-0.774118,0.629289,-0.396593,-0.025882,0.546337,0.998797,-0.747539,0.653663,-0.398797,-0.052461
24.550000,0.576041,0.994264,-0.781776,0.623959,-0.394264,-0.018224,0.553146,0.998767,-0.754379,0.646854,-0.398767,-0.045621
24.600000,0.580902,0.991355,-0.789547,0.619098,-0.391355,-0.010453,0.559416,0.998137,-0.761279,0.640584,-0.398137,-0.038721
24.650000,0.585264,0.987882,-0.797382,0.614736,-0.387882,-0.002618,0.565432,0.996897,-0.768535,0.634568,-0.396897,-0.031465
24.700000,0.589101,0.983867,-0.805234,0.610899,-0.383867,0.005234,0.571037,0.995064,-0.775973,0.628963,-0.395064,-0.024027
24.750000,0.592388,0.979335,-0.813053,0.607612,-0.379335,0.013053,0.576206,0.992646,-0.783560,0.623794,-0.392646,-0.016440
24.800000,0.595106,0.974314,-0.820791,0.604894,-0.374314,0.020791,0.580924,0.989640,-0.791285,0.619076,-0.389640,-0.008715
24.850000,0.597237,0.968835,-0.828402,0.602763,-0.368835,0.028402,0.585137,0.986084,-0.799052,0.614863,-0.386084,-0.000948
24.900000,0.598769,0.962932,-0.835837,0.601231,-0.362932,0.035837,0.588817,0.982008,-0.806809,0.611183,-0.382008,0.006809
24.950000,0.599692,0.956641,-0.843051,0.600308,-0.356641,0.043051,0.591952,0.977417,-0.814535,0.608048,-0.377417,0.014535
25.000000,0.600000,0.950000,-0.850000,0.600000,-0.350000,0.050000,0.594519,0.972351,-0.822168,0.605481,-0.372351,0.022168
25.050000,0.599692,0.943051,-0.856641,0.600308,-0.343051,0.056641,0.596496,0.966881,-0.829615,0.603504,-0.366881,0.029615
25.100000,0.598769,0.935837,-0.862932,0.601231,-0.335837,0.062932,0.597885,0.960955,-0.836930,0.602115,-0.360955,0.036930
25.150000,0.597237,0.928402,-0.868835,0.602763,-0.328402,0.068835,0.598672,0.954684,-0.843988,0.601328,-0.354684,0.043988
25.200000,0.595106,0.920791,-0.874314,0.604894,-0.320791,0.074314,0.598847,0.948024,-0.850823,0.601153,-0.348024,0.050823
25.250000,0.592388,0.913053,-0.879335,0.607612,-0.313053,0.079335,0.598397,0.940933,-0.857464,0.601603,-0.340933,0.057464
25.300000,0.589101,0.905234,-0.883867,0.610899,-0.305234,0.083867,0.597385,0.933940,-0.863445,0.602615,-0.333940,0.063445
25.350000,0.585264,0.897382,-0.887882,0.614736,-0.297382,0.087882,0.595737,0.926521,-0.869216,0.604263,-0.326521,0.069216
25.400000,0.580902,0.889547,-0.891355,0.619098,-0.289547,0.091355,0.593507,0.918964,-0.874543,0.606493,-0.318964,0.074543
25.450000,0.576041,0.881776,-0.894264,0.623959,-0.281776,0.094264,0.590694,0.911277,-0.879417,0.609306,-0.311277,0.079417
25.500000,0.570711,0.874118,-0.896593,0.629289,-0.274118,0.096593,0.587257,0.903388,-0.883870,0.612743,-0.303388,0.083870
25.550000,0.564945,0.866619,-0.898325,0.635055,-0.266619,0.098325,0.583422,0.895770,-0.887652,0.616578,-0.295770,0.087652
25.600000,0.558779,0.859326,-0.899452,0.641221,-0.259326,0.099452,0.578998,0.888026,-0.890972,0.621002,-0.288026,0.090972
25.650000,0.552250,0.852284,-0.899966,0.647750,-0.252284,0.099966,0.574117,0.880396,-0.893721,0.625883,-0.280396,0.093721
25.700000,0.545399,0.845536,-0.899863,0.654601,-0.245536,0.099863,0.568752,0.872852,-0.895900,0.631248,-0.272852,0.095900
25.750000,0.538268,0.839124,-0.899144,0.661732,-0.239124,0.099144,0.562952,0.865462,-0.897490,0.637048,-0.265462,0.097490
25.800000,0.530902,0.833087,-0.897815,0.669098,-0.233087,0.097815,0.556768,0.858291,-0.898477,0.643232,-0.258291,0.098477
25.850000,0.523345,0.827463,-0.895882,0.676655,-0.227463,0.095882,0.550060,0.851199,-0.898861,0.649940,-0.251199,0.098861
25.900000,0.515643,0.822285,-0.893358,0.684357,-0.222285,0.093358,0.543457,0.844824,-0.898633,0.656543,-0.244824,0.098633
25.950000,0.507846,0.817587,-0.890259,0.692154,-0.217587,0.090259,0.536342,0.838549,-0.897793,0.663658,-0.238549,0.097793
26.000000,0.500000,0.813397,-0.886603,0.700000,-0.213397,0.086603,0.529006,0.832656,-0.896351,0.670994,-0.232656,0.096351
26.050000,0.492154,0.809741,-0.882413,0.707846,-0.209741,0.082413,0.521497,0.827182,-0.894315,0.678503,-0.227182,0.094315
26.100000,0.484357,0.806642,-0.877715,0.715643,-0.206642,0.077715,0.513844,0.822151,-0.891693,0.686156,-0.222151,0.091693
26.150000,0.476655,0.804118,-0.872537,0.723345,-0.204118,0.072537,0.505971,0.817528,-0.888443,0.694029,-0.217528,0.088443
26.200000,0.469098,0.802185,-0.866913,0.730902,-0.202185,0.066913,0.498346,0.813570,-0.884776,0.701654,-0.213570,0.084776
26.250000,0.461732,0.800856,-0.860876,0.738268,-0.200856,0.060876,0.490672,0.810095,-0.880576,0.709328,-0.210095,0.080576
26.300000,0.454601,0.800137,-0.854464,0.745399,-0.200137,0.054464,0.482945,0.807139,-0.875806,0.717055,-0.207139,0.075806
26.350000,0.447750,0.800034,-0.847716,0.752250,-0.200034,0.047716,0.475338,0.804761,-0.870577,0.724662,-0.204761,0.070577
26.400000,0.441221,0.800548,-0.840674,0.758779,-0.200548,0.040674,0.467892,0.802973,-0.864919,0.732108,-0.202973,0.064919
26.450000,0.435055,0.801675,-0.833381,0.764945,-0.201675,0.033381,0.460658,0.801785,-0.858873,0.739342,-0.201785,0.058873
26.500000,0.429289,0.803407,-0.825882,0.770711,-0.203407,0.025882,0.453666,0.801202,-0.852464,0.746334,-0.201202,0.052464
26.550000,0.423959,0.805736,-0.818224,0.776041,-0.205736,0.018224,0.446978,0.801225,-0.845753,0.753022,-0.201225,0.045753
26.600000,0.419098,0.808645,-0.810453,0.780902,-0.208645,0.010453,0.440580,0.801865,-0.838715,0.759420,-0.201865,0.038715
26.650000,0.414736,0.812118,-0.802618,0.785264,-0.212118,0.002618,0.434555,0.803109,-0.831447,0.765445,-0.203109,0.031447
26.700000,0.410899,0.816133,-0.794766,0.789101,-0.216133,-0.005234,0.428938,0.804949,-0.823989,0.771062,-0.204949,0.023989
26.750000,0.407612,0.820665,-0.786947,0.792388,-0.220665,-0.013053,0.423762,0.807376,-0.816386,0.776238,-0.207376,0.016386
26.800000,0.404894,0.825686,-0.779209,0.795106,-0.225686,-0.020791,0.418978,0.810433,-0.808544,0.781022,-0.210433,0.008544
26.850000,0.402763,0.831165,-0.771598,0.797237,-0.231165,-0.028402,0.414857,0.813917,-0.800939,0.785143,-0.213917,0.000939
26.900000,0.401231,0.837068,-0.764163,0.798769,-0.237068,-0.035837,0.411175,0.818000,-0.793175,0.788825,-0.218000,-0.006825
26.950000,0.400308,0.843359,-0.756949,0.799692,-0.243359,-0.043051,0.408043,0.822588,-0.785455,0.791957,-0.222588,-0.014545
27.000000,0.400000,0.850000,-0.750000,0.800000,-0.250000,-0.050000,0.405480,0.827643,-0.777837,0.794520,-0.227643,-0.022163
27.050000,0.400308,0.856949,-0.743359,0.799692,-0.256949,-0.056641,0.403499,0.833145,-0.770354,0.796501,-0.233145,-0.029646
27.100000,0.401231,0.864163,-0.737068,0.798769,-0.264163,-0.062932,0.402111,0.839074,-0.763038,0.797889,-0.239074,-0.036962
27.150000,0.402763,0.871598,-0.731165,0.797237,-0.271598,-0.068835,0.401327,0.845361,-0.755966,0.798673,-0.245361,-0.044034
27.200000,0.404894,0.879209,-0.725686,0.795106,-0.279209,-0.074314,0.401153,0.852003,-0.749150,0.798847,-0.252003,-0.050850
27.250000,0.407612,0.886947,-0.720665,0.792388,-0.286947,-0.079335,0.401602,0.859090,-0.742512,0.798398,-0.259090,-0.057488
27.300000,0.410899,0.894766,-0.716133,0.789101,-0.294766,-0.083867,0.402610,0.866051,-0.736559,0.797390,-0.266051,-0.063441
27.350000,0.414736,0.902618,-0.712118,0.785264,-0.302618,-0.087882,0.404254,0.873458,-0.730796,0.795746,-0.273458,-0.069204
27.400000,0.419098,0.910453,-0.708645,0.780902,-0.310453,-0.091355,0.406494,0.881038,-0.725456,0.793506,-0.281038,-0.074544
27.450000,0.423959,0.918224,-0.705736,0.776041,-0.318224,-0.094264,0.409306,0.888724,-0.720583,0.790694,-0.288724,-0.079417
27.500000,0.429289,0.925882,-0.703407,0.770711,-0.325882,-0.096593,0.412677,0.896473,-0.716204,0.787323,-0.296473,-0.083796
27.550000,0.435055,0.933381,-0.701675,0.764945,-0.333381,-0.098325,0.416575,0.904225,-0.712349,0.783425,-0.304225,-0.087651
27.600000,0.441221,0.940674,-0.700548,0.758779,-0.340674,-0.099452,0.421000,0.911971,-0.709029,0.779000,-0.311971,-0.090971
27.650000,0.447750,0.947716,-0.700034,0.752250,-0.347716,-0.099966,0.425901,0.919627,-0.706274,0.774099,-0.319627,-0.093726
27.700000,0.454601,0.954464,-0.700137,0.745399,-0.354464,-0.099863,0.431271,0.927176,-0.704094,0.768729,-0.327176,-0.095906
27.750000,0.461732,0.960876,-0.700856,0.738268,-0.360876,-0.099144,0.437037,0.934528,-0.702509,0.762963,-0.334528,-0.097491
27.800000,0.469098,0.966913,-0.702185,0.730902,-0.366913,-0.097815,0.443225,0.941703,-0.701523,0.756775,-0.341703,-0.098477
27.850000,0.476655,0.972537,-0.704118,0.723345,-0.372537,-0.095882,0.449880,0.948737,-0.701144,0.750120,-0.348737,-0.098856
27.900000,0.484357,0.977715,-0.706642,0.715643,-0.377715,-0.093358,0.456583,0.955210,-0.701373,0.743417,-0.355210,-0.098627
27.950000,0.492154,0.982413,-0.709741,0.707846,-0.382413,-0.090259,0.463827,0.961591,-0.702235,0.736173,-0.361591,-0.097765
28.000000,0.500000,0.986603,-0.713397,0.700000,-0.386603,-0.086603,0.471135,0.967455,-0.703680,0.728865,-0.367455,-0.096320
28.050000,0.507846,0.990259,-0.717587,0.692154,-0.390259,-0.082413,0.478840,0.973053,-0.705787,0.721160,-0.373053,-0.094213
28.100000,0.515643,0.993358,-0.722285,0.684357,-0.393358,-0.077715,0.486110,0.977825,-0.708285,0.713890,-0.377825,-0.091715
28.150000,0.523345,0.995882,-0.727463,0.676655,-0.395882,-0.072537,0.493861,0.982381,-0.711480,0.706139,-0.382381,-0.088520
28.200000,0.530902,0.997815,-0.733087,0.669098,-0.397815,-0.066913,0.501624,0.986416,-0.715208,0.698376,-0.386416,-0.084792
28.250000,0.538268,0.999144,-0.739124,0.661732,-0.399144,-0.060876,0.509389,0.989922,-0.719467,0.690611,-0.389922,-0.080533
28.300000,0.545399,0.999863,-0.745536,0.654601,-0.399863,-0.054464,0.517080,0.992868,-0.724212,0.682920,-0.392868,-0.075788
28.350000,0.552250,0.999966,-0.752284,0.647750,-0.399966,-0.047716,0.524662,0.995241,-0.729421,0.675338,-0.395241,-0.070579
28.400000,0.558779,0.999452,-0.759326,0.641221,-0.399452,-0.040674,0.532108,0.997028,-0.735080,0.667892,-0.397028,-0.064920
28.450000,0.564945,0.998325,-0.766619,0.635055,-0.398325,-0.033381,0.539584,0.998244,-0.741340,0.660416,-0.398244,-0.058660
28.500000,0.570711,0.996593,-0.774118,0.629289,-0.396593,-0.025882,0.546333,0.998799,-0.747534,0.653667,-0.398799,-0.052466
28.550000,0.576041,0.994264,-0.781776,0.623959,-0.394264,-0.018224,0.553001,0.998779,-0.754222,0.646999,-0.398779,-0.045778
28.600000,0.580902,0.991355,-0.789547,0.619098,-0.391355,-0.010453,0.559366,0.998150,-0.761216,0.640634,-0.398150,-0.038784
28.650000,0.585264,0.987882,-0.797382,0.614736,-0.387882,-0.002618,0.565396,0.996908,-0.768488,0.634604,-0.396908,-0.031512
28.700000,0.589101,0.983867,-0.805234,0.610899,-0.383867,0.005234,0.571209,0.994989,-0.776220,0.628791,-0.394989,-0.023780
28.750000,0.592388,0.979335,-0.813053,0.607612,-0.379335,0.013053,0.576202,0.992645,-0.783556,0.623798,-0.392645,-0.016444
28.800000,0.595106,0.974314,-0.820791,0.604894,-0.374314,0.020791,0.580921,0.989639,-0.791282,0.619079,-0.389639,-0.008718
28.850000,0.597237,0.968835,-0.828402,0.602763,-0.368835,0.028402,0.585129,0.986092,-0.799037,0.614871,-0.386092,-0.000963
28.900000,0.598769,0.962932,-0.835837,0.601231,-0.362932,0.035837,0.588816,0.982005,-0.806811,0.611184,-0.382005,0.006811
28.950000,0.599692,0.956641,-0.843051,0.600308,-0.356641,0.043051,0.591948,0.977425,-0.814523,0.608052,-0.377425,0.014523
29.000000,0.600000,0.950000,-0.850000,0.600000,-0.350000,0.050000,0.594512,0.972373,-0.822139,0.605488,-0.372373,0.022139
29.050000,0.599692,0.943051,-0.856641,0.600308,-0.343051,0.056641,0.596550,0.966677,-0.829873,0.603450,-0.366677,0.029873
29.100000,0.598769,0.935837,-0.862932,0.601231,-0.335837,0.062932,0.597885,0.960950,-0.836935,0.602115,-0.360950,0.036935
29.150000,0.597237,0.928402,-0.868835,0.602763,-0.328402,0.068835,0.598672,0.954673,-0.843999,0.601328,-0.354673,0.043999
29.200000,0.595106,0.920791,-0.874314,0.604894,-0.320791,0.074314,0.598850,0.947942,-0.850907,0.601150,-0.347942,0.050907
29.250000,0.592388,0.913053,-0.879335,0.607612,-0.313053,0.079335,0.598404,0.940985,-0.857419,0.601596,-0.340985,0.057419
29.300000,0.589101,0.905234,-0.883867,0.610899,-0.305234,0.083867,0.597381,0.933932,-0.863449,0.602619,-0.333932,0.063449
29.350000,0.585264,0.897382,-0.887882,0.614736,-0.297382,0.087882,0.595735,0.926516,-0.869218,0.604265,-0.326516,0.069218
29.400000,0.580902,0.889547,-0.891355,0.619098,-0.289547,0.091355,0.593500,0.918947,-0.874553,0.606500,-0.318947,0.074553
29.450000,0.576041,0.881776,-0.894264,0.623959,-0.281776,0.094264,0.590695,0.911279,-0.879417,0.609305,-0.311279,0.079417
29.500000,0.570711,0.874118,-0.896593,0.629289,-0.274118,0.096593,0.587324,0.903528,-0.883796,0.612676,-0.303528,0.083796
29.550000,0.564945,0.866619,-0.898325,0.635055,-0.266619,0.098325,0.583416,0.895760,-0.887656,0.616584,-0.295760,0.087656
29.600000,0.558779,0.859326,-0.899452,0.641221,-0.259326,0.099452,0.578995,0.888020,-0.890974,0.621005,-0.288020,0.090974
29.650000,0.552250,0.852284,-0.899966,0.647750,-0.252284,0.099966,0.574098,0.880371,-0.893727,0.625902,-0.280371,0.093727
29.700000,0.545399,0.845536,-0.899863,0.654601,-0.245536,0.099863,0.568740,0.872835,-0.895904,0.631260,-0.272835,0.095904
29.750000,0.538268,0.839124,-0.899144,0.661732,-0.239124,0.099144,0.562770,0.865239,-0.897531,0.637230,-0.265239,0.097531
29.800000,0.530902,0.833087,-0.897815,0.669098,-0.233087,0.097815,0.556795,0.858318,-0.898477,0.643205,-0.258318,0.098477
29.850000,0.523345,0.827463,-0.895882,0.676655,-0.227463,0.095882,0.550291,0.851431,-0.898860,0.649709,-0.251431,0.098860
29.900000,0.515643,0.822285,-0.893358,0.684357,-0.222285,0.093358,0.543431,0.844804,-0.898627,0.656569,-0.244804,0.098627
29.950000,0.507846,0.817587,-0.890259,0.692154,-0.217587,0.090259,0.536314,0.838527,-0.897786,0.663686,-0.238527,0.097786
30.000000,0.500000,0.813397,-0.886603,0.700000,-0.213397,0.086603,0.528978,0.832635,-0.896343,0.671022,-0.232635,0.096343
30.050000,0.492154,0.809741,-0.882413,0.707846,-0.209741,0.082413,0.521468,0.827162,-0.894306,0.678532,-0.227162,0.094306
30.100000,0.484357,0.806642,-0.877715,0.715643,-0.206642,0.077715,0.513840,0.822146,-0.891693,0.686160,-0.222146,0.091693
30.150000,0.476655,0.804118,-0.872537,0.723345,-0.204118,0.072537,0.506132,0.817613,-0.888519,0.693868,-0.217613,0.088519
30.200000,0.469098,0.802185,-0.866913,0.730902,-0.202185,0.066913,0.498385,0.813585,-0.884800,0.701615,-0.213585,0.084800
30.250000,0.461732,0.800856,-0.860876,0.738268,-0.200856,0.060876,0.490616,0.810079,-0.880537,0.709384,-0.210079,0.080537
30.300000,0.454601,0.800137,-0.854464,0.745399,-0.200137,0.054464,0.482912,0.807130,-0.875783,0.717088,-0.207130,0.075783
30.350000,0.447750,0.800034,-0.847716,0.752250,-0.200034,0.047716,0.475329,0.804757,-0.870572,0.724671,-0.204757,0.070572
30.400000,0.441221,0.800548,-0.840674,0.758779,-0.200548,0.040674,0.467886,0.802971,-0.864916,0.732114,-0.202971,0.064916
30.450000,0.435055,0.801675,-0.833381,0.764945,-0.201675,0.033381,0.460680,0.801784,-0.858896,0.739320,-0.201784,0.058896
30.500000,0.429289,0.803407,-0.825882,0.770711,-0.203407,0.025882,0.453679,0.801201,-0.852478,0.746321,-0.201201,0.052478
30.550000,0.423959,0.805736,-0.818224,0.776041,-0.205736,0.018224,0.446969,0.801228,-0.845741,0.753031,-0.201228,0.045741
30.600000,0.419098,0.808645,-0.810453,0.780902,-0.208645,0.010453,0.440584,0.801863,-0.838720,0.759416,-0.201863,0.038720
30.650000,0.414736,0.812118,-0.802618,0.785264,-0.212118,0.002618,0.434557,0.803108,-0.831450,0.765443,-0.203108,0.031450
30.700000,0.410899,0.816133,-0.794766,0.789101,-0.216133,-0.005234,0.428940,0.804949,-0.823991,0.771060,-0.204949,0.023991
30.750000,0.407612,0.820665,-0.786947,0.792388,-0.220665,-0.013053,0.423763,0.807376,-0.816387,0.776237,-0.207376,0.016387
30.800000,0.404894,0.825686,-0.779209,0.795106,-0.225686,-0.020791,0.419070,0.810360,-0.808710,0.780930,-0.210360,0.008710
30.850000,0.402763,0.831165,-0.771598,0.797237,-0.231165,-0.028402,0.414865,0.813909,-0.800956,0.785135,-0.213909,0.000956
30.900000,0.401231,0.837068,-0.764163,0.798769,-0.237068,-0.035837,0.411191,0.817976,-0.793214,0.788809,-0.217976,-0.006786
30.950000,0.400308,0.843359,-0.756949,0.799692,-0.243359,-0.043051,0.408060,0.822554,-0.785506,0.791940,-0.222554,-0.014494
31.000000,0.400000,0.850000,-0.750000,0.800000,-0.250000,-0.050000,0.405488,0.827632,-0.777856,0.794512,-0.227632,-0.022144
31.050000,0.400308,0.856949,-0.743359,0.799692,-0.256949,-0.056641,0.403506,0.833122,-0.770384,0.796494,-0.233122,-0.029616
31.100000,0.401231,0.864163,-0.737068,0.798769,-0.264163,-0.062932,0.402116,0.839060,-0.763055,0.797884,-0.239060,-0.036945
31.150000,0.402763,0.871598,-0.731165,0.797237,-0.271598,-0.068835,0.401330,0.845353,-0.755977,0.798670,-0.245353,-0.044023
31.200000,0.404894,0.879209,-0.725686,0.795106,-0.279209,-0.074314,0.401154,0.851998,-0.749156,0.798846,-0.251998,-0.050844
31.250000,0.407612,0.886947,-0.720665,0.792388,-0.286947,-0.079335,0.401635,0.859382,-0.742253,0.798365,-0.259382,-0.057747
31.300000,0.410899,0.894766,-0.716133,0.789101,-0.294766,-0.083867,0.402616,0.866071,-0.736544,0.797384,-0.266071,-0.063456
31.350000,0.414736,0.902618,-0.712118,0.785264,-0.302618,-0.087882,0.404263,0.873486,-0.730778,0.795737,-0.273486,-0.069222
31.400000,0.419098,0.910453,-0.708645,0.780902,-0.310453,-0.091355,0.406499,0.881054,-0.725445,0.793501,-0.281054,-0.074555
31.450000,0.423959,0.918224,-0.705736,0.776041,-0.318224,-0.094264,0.409309,0.888733,-0.720576,0.790691,-0.288733,-0.079424
31.500000,0.429289,0.925882,-0.703407,0.770711,-0.325882,-0.096593,0.412661,0.896447,-0.716214,0.787339,-0.296447,-0.083786
31.550000,0.435055,0.933381,-0.701675,0.764945,-0.333381,-0.098325,0.416575,0.904226,-0.712349,0.783425,-0.304226,-0.087651
31.600000,0.441221,0.940674,-0.700548,0.758779,-0.340674,-0.099452,0.421000,0.911971,-0.709029,0.779000,-0.311971,-0.090971
31.650000,0.447750,0.947716,-0.700034,0.752250,-0.347716,-0.099966,0.425879,0.919598,-0.706281,0.774121,-0.319598,-0.093719
31.700000,0.454601,0.954464,-0.700137,0.745399,-0.354464,-0.099863,0.431258,0.927159,-0.704098,0.768742,-0.327159,-0.095902
31.750000,0.461732,0.960876,-0.700856,0.738268,-0.360876,-0.099144,0.437054,0.934545,-0.702509,0.762946,-0.334545,-0.097491
31.800000,0.469098,0.966913,-0.702185,0.730902,-0.366913,-0.097815,0.443224,0.941702,-0.701523,0.756776,-0.341702,-0.098477
31.850000,0.476655,0.972537,-0.704118,0.723345,-0.372537,-0.095882,0.449758,0.948614,-0.701144,0.750242,-0.348614,-0.098856
31.900000,0.484357,0.977715,-0.706642,0.715643,-0.377715,-0.093358,0.456539,0.955174,-0.701365,0.743461,-0.355174,-0.098635
31.950000,0.492154,0.982413,-0.709741,0.707846,-0.382413,-0.090259,0.463801,0.961570,-0.702231,0.736199,-0.361570,-0.097769
32.000000,0.500000,0.986603,-0.713397,0.700000,-0.386603,-0.086603,0.471011,0.967357,-0.703654,0.728989,-0.367357,-0.096346
32.050000,0.507846,0.990259,-0.717587,0.692154,-0.390259,-0.082413,0.478458,0.972793,-0.705665,0.721542,-0.372793,-0.094335
32.100000,0.515643,0.993358,-0.722285,0.684357,-0.393358,-0.077715,0.486084,0.977809,-0.708274,0.713916,-0.377809,-0.091726
32.150000,0.523345,0.995882,-0.727463,0.676655,-0.395882,-0.072537,0.493829,0.982364,-0.711465,0.706171,-0.382364,-0.088535
32.200000,0.530902,0.997815,-0.733087,0.669098,-0.397815,-0.066913,0.501619,0.986412,-0.715207,0.698381,-0.386412,-0.084793
32.250000,0.538268,0.999144,-0.739124,0.661732,-0.399144,-0.060876,0.509363,0.989912,-0.719451,0.690637,-0.389912,-0.080549
32.300000,0.545399,0.999863,-0.745536,0.654601,-0.399863,-0.054464,0.517075,0.992865,-0.724210,0.682925,-0.392865,-0.075790
32.350000,0.552250,0.999966,-0.752284,0.647750,-0.399966,-0.047716,0.524674,0.995241,-0.729432,0.675326,-0.395241,-0.070568
32.400000,0.558779,0.999452,-0.759326,0.641221,-0.399452,-0.040674,0.532103,0.997027,-0.735075,0.667897,-0.397027,-0.064925
32.450000,0.564945,0.998325,-0.766619,0.635055,-0.398325,-0.033381,0.539349,0.998216,-0.741133,0.660651,-0.398216,-0.058867
32.500000,0.570711,0.996593,-0.774118,0.629289,-0.396593,-0.025882,0.546471,0.998801,-0.747670,0.653529,-0.398801,-0.052330
32.550000,0.576041,0.994264,-0.781776,0.623959,-0.394264,-0.018224,0.553051,0.998771,-0.754281,0.646949,-0.398771,-0.045719
32.600000,0.580902,0.991355,-0.789547,0.619098,-0.391355,-0.010453,0.559396,0.998145,-0.761251,0.640604,-0.398145,-0.038749
32.650000,0.585264,0.987882,-0.797382,0.614736,-0.387882,-0.002618,0.565431,0.996897,-0.768533,0.634569,-0.396897,-0.031467
32.700000,0.589101,0.983867,-0.805234,0.610899,-0.383867,0.005234,0.571053,0.995054,-0.775999,0.628947,-0.395054,-0.024001
32.750000,0.592388,0.979335,-0.813053,0.607612,-0.379335,0.013053,0.576227,0.992631,-0.783596,0.623773,-0.392631,-0.016404
32.800000,0.595106,0.974314,-0.820791,0.604894,-0.374314,0.020791,0.580930,0.989637,-0.791293,0.619070,-0.389637,-0.008707
32.850000,0.597237,0.968835,-0.828402,0.602763,-0.368835,0.028402,0.585218,0.986007,-0.799211,0.614782,-0.386007,-0.000789
32.900000,0.598769,0.962932,-0.835837,0.601231,-0.362932,0.035837,0.588819,0.982007,-0.806813,0.611181,-0.382007,0.006813
32.950000,0.599692,0.956641,-0.843051,0.600308,-0.356641,0.043051,0.591937,0.977460,-0.814477,0.608063,-0.377460,0.014477
33.000000,0.600000,0.950000,-0.850000,0.600000,-0.350000,0.050000,0.594508,0.972385,-0.822123,0.605492,-0.372385,0.022123
33.050000,0.599692,0.943051,-0.856641,0.600308,-0.343051,0.056641,0.596495,0.966860,-0.829635,0.603505,-0.366860,0.029635
33.100000,0.598769,0.935837,-0.862932,0.601231,-0.335837,0.062932,0.597904,0.960819,-0.837085,0.602096,-0.360819,0.037085
33.150000,0.597237,0.928402,-0.868835,0.602763,-0.328402,0.068835,0.598671,0.954636,-0.844035,0.601329,-0.354636,0.044035
33.200000,0.595106,0.920791,-0.874314,0.604894,-0.320791,0.074314,0.598848,0.948008,-0.850839,0.601152,-0.348008,0.050839
33.250000,0.592388,0.913053,-0.879335,0.607612,-0.313053,0.079335,0.598401,0.940954,-0.857447,0.601599,-0.340954,0.057447
33.300000,0.589101,0.905234,-0.883867,0.610899,-0.305234,0.083867,0.597375,0.933898,-0.863477,0.602625,-0.333898,0.063477
33.350000,0.585264,0.897382,-0.887882,0.614736,-0.297382,0.087882,0.595695,0.926360,-0.869335,0.604305,-0.326360,0.069335
33.400000,0.580902,0.889547,-0.891355,0.619098,-0.289547,0.091355,0.593498,0.918936,-0.874562,0.606502,-0.318936,0.074562
33.450000,0.576041,0.881776,-0.894264,0.623959,-0.281776,0.094264,0.590675,0.911208,-0.879466,0.609325,-0.311208,0.079466
33.500000,0.570711,0.874118,-0.896593,0.629289,-0.274118,0.096593,0.587346,0.903570,-0.883776,0.612654,-0.303570,0.083776
33.550000,0.564945,0.866619,-0.898325,0.635055,-0.266619,0.098325,0.583429,0.895785,-0.887644,0.616571,-0.295785,0.087644
33.600000,0.558779,0.859326,-0.899452,0.641221,-0.259326,0.099452,0.579002,0.888035,-0.890967,0.620998,-0.288035,0.090967
33.650000,0.552250,0.852284,-0.899966,0.647750,-0.252284,0.099966,0.574091,0.880365,-0.893726,0.625909,-0.280365,0.093726
33.700000,0.545399,0.845536,-0.899863,0.654601,-0.245536,0.099863,0.568725,0.872819,-0.895906,0.631275,-0.272819,0.095906
33.750000,0.538268,0.839124,-0.899144,0.661732,-0.239124,0.099144,0.562935,0.865442,-0.897493,0.637065,-0.265442,0.097493
33.800000,0.530902,0.833087,-0.897815,0.669098,-0.233087,0.097815,0.556759,0.858280,-0.898479,0.643241,-0.258280,0.098479
33.850000,0.523345,0.827463,-0.895882,0.676655,-0.227463,0.095882,0.550255,0.851396,-0.898859,0.649745,-0.251396,0.098859
33.900000,0.515643,0.822285,-0.893358,0.684357,-0.222285,0.093358,0.543410,0.844784,-0.898626,0.656590,-0.244784,0.098626
33.950000,0.507846,0.817587,-0.890259,0.692154,-0.217587,0.090259,0.536389,0.838581,-0.897808,0.663611,-0.238581,0.097808
34.000000,0.500000,0.813397,-0.886603,0.700000,-0.213397,0.086603,0.529035,0.832675,-0.896360,0.670965,-0.232675,0.096360
34.050000,0.492154,0.809741,-0.882413,0.707846,-0.209741,0.082413,0.521538,0.827207,-0.894330,0.678462,-0.227207,0.094330
34.100000,0.484357,0.806642,-0.877715,0.715643,-0.206642,0.077715,0.513884,0.822175,-0.891709,0.686116,-0.222175,0.091709
34.150000,0.476655,0.804118,-0.872537,0.723345,-0.204118,0.072537,0.506199,0.817649,-0.888550,0.693801,-0.217649,0.088550
34.200000,0.469098,0.802185,-0.866913,0.730902,-0.202185,0.066913,0.498411,0.813601,-0.884810,0.701589,-0.213601,0.084810
34.250000,0.461732,0.800856,-0.860876,0.738268,-0.200856,0.060876,0.490503,0.810034,-0.880469,0.709497,-0.210034,0.080469
34.300000,0.454601,0.800137,-0.854464,0.745399,-0.200137,0.054464,0.482786,0.807088,-0.875698,0.717214,-0.207088,0.075698
34.350000,0.447750,0.800034,-0.847716,0.752250,-0.200034,0.047716,0.475354,0.804765,-0.870589,0.724646,-0.204765,0.070589
34.400000,0.441221,0.800548,-0.840674,0.758779,-0.200548,0.040674,0.467901,0.802975,-0.864926,0.732099,-0.202975,0.064926
34.450000,0.435055,0.801675,-0.833381,0.764945,-0.201675,0.033381,0.460666,0.801786,-0.858880,0.739334,-0.201786,0.058880
34.500000,0.429289,0.803407,-0.825882,0.770711,-0.203407,0.025882,0.453661,0.801204,-0.852457,0.746339,-0.201204,0.052457
34.550000,0.423959,0.805736,-0.818224,0.776041,-0.205736,0.018224,0.446955,0.801230,-0.845725,0.753045,-0.201230,0.045725
34.600000,0.419098,0.808645,-0.810453,0.780902,-0.208645,0.010453,0.440566,0.801867,-0.838699,0.759434,-0.201867,0.038699
34.650000,0.414736,0.812118,-0.802618,0.785264,-0.212118,0.002618,0.434547,0.803110,-0.831437,0.765453,-0.203110,0.031437
34.700000,0.410899,0.816133,-0.794766,0.789101,-0.216133,-0.005234,0.428940,0.804946,-0.823994,0.771060,-0.204946,0.023994
34.750000,0.407612,0.820665,-0.786947,0.792388,-0.220665,-0.013053,0.423771,0.807368,-0.816403,0.776229,-0.207368,0.016403
34.800000,0.404894,0.825686,-0.779209,0.795106,-0.225686,-0.020791,0.419084,0.810346,-0.808738,0.780916,-0.210346,0.008738
34.850000,0.402763,0.831165,-0.771598,0.797237,-0.231165,-0.028402,0.414868,0.813907,-0.800961,0.785132,-0.213907,0.000961
34.900000,0.401231,0.837068,-0.764163,0.798769,-0.237068,-0.035837,0.411199,0.817963,-0.793237,0.788801,-0.217963,-0.006763
34.950000,0.400308,0.843359,-0.756949,0.799692,-0.243359,-0.043051,0.408066,0.822542,-0.785525,0.791934,-0.222542,-0.014475
35.000000,0.400000,0.850000,-0.750000,0.800000,-0.250000,-0.050000,0.405492,0.827625,-0.777867,0.794508,-0.227625,-0.022133
35.050000,0.400308,0.856949,-0.743359,0.799692,-0.256949,-0.056641,0.403506,0.833134,-0.770372,0.796494,-0.233134,-0.029628
35.100000,0.401231,0.864163,-0.737068,0.798769,-0.264163,-0.062932,0.402097,0.839178,-0.762919,0.797903,-0.239178,-0.037081
35.150000,0.402763,0.871598,-0.731165,0.797237,-0.271598,-0.068835,0.401329,0.845348,-0.755981,0.798671,-0.245348,-0.044019
35.200000,0.404894,0.879209,-0.725686,0.795106,-0.279209,-0.074314,0.401154,0.851995,-0.749159,0.798846,-0.251995,-0.050841
35.250000,0.407612,0.886947,-0.720665,0.792388,-0.286947,-0.079335,0.401588,0.858933,-0.742655,0.798412,-0.258933,-0.057345
35.300000,0.410899,0.894766,-0.716133,0.789101,-0.294766,-0.083867,0.402630,0.866120,-0.736509,0.797370,-0.266120,-0.063491
35.350000,0.414736,0.902618,-0.712118,0.785264,-0.302618,-0.087882,0.404266,0.873499,-0.730767,0.795734,-0.273499,-0.069233
35.400000,0.419098,0.910453,-0.708645,0.780902,-0.310453,-0.091355,0.406500,0.881062,-0.725439,0.793500,-0.281062,-0.074561
35.450000,0.423959,0.918224,-0.705736,0.776041,-0.318224,-0.094264,0.409303,0.888722,-0.720581,0.790697,-0.288722,-0.079419
35.500000,0.429289,0.925882,-0.703407,0.770711,-0.325882,-0.096593,0.412667,0.896460,-0.716208,0.787333,-0.296460,-0.083792
35.550000,0.435055,0.933381,-0.701675,0.764945,-0.333381,-0.098325,0.416560,0.904203,-0.712357,0.783440,-0.304203,-0.087643
35.600000,0.441221,0.940674,-0.700548,0.758779,-0.340674,-0.099452,0.421085,0.912111,-0.708974,0.778915,-0.312111,-0.091026
35.650000,0.447750,0.947716,-0.700034,0.752250,-0.347716,-0.099966,0.425878,0.919595,-0.706282,0.774122,-0.319595,-0.093718
35.700000,0.454601,0.954464,-0.700137,0.745399,-0.354464,-0.099863,0.431257,0.927158,-0.704099,0.768743,-0.327158,-0.095901
35.750000,0.461732,0.960876,-0.700856,0.738268,-0.360876,-0.099144,0.437054,0.934544,-0.702510,0.762946,-0.334544,-0.097490
35.800000,0.469098,0.966913,-0.702185,0.730902,-0.366913,-0.097815,0.443224,0.941701,-0.701523,0.756776,-0.341701,-0.098477
35.850000,0.476655,0.972537,-0.704118,0.723345,-0.372537,-0.095882,0.449736,0.948593,-0.701142,0.750264,-0.348593,-0.098858
35.900000,0.484357,0.977715,-0.706642,0.715643,-0.377715,-0.093358,0.456574,0.955202,-0.701372,0.743426,-0.355202,-0.098628
35.950000,0.492154,0.982413,-0.709741,0.707846,-0.382413,-0.090259,0.463662,0.961456,-0.702206,0.736338,-0.361456,-0.097794
36.000000,0.500000,0.986603,-0.713397,0.700000,-0.386603,-0.086603,0.470994,0.967345,-0.703648,0.729006,-0.367345,-0.096352
36.050000,0.507846,0.990259,-0.717587,0.692154,-0.390259,-0.082413,0.478504,0.972820,-0.705684,0.721496,-0.372820,-0.094316
36.100000,0.515643,0.993358,-0.722285,0.684357,-0.393358,-0.077715,0.486295,0.977935,-0.708360,0.713705,-0.377935,-0.091640
36.150000,0.523345,0.995882,-0.727463,0.676655,-0.395882,-0.072537,0.493864,0.982384,-0.711480,0.706136,-0.382384,-0.088520
36.200000,0.530902,0.997815,-0.733087,0.669098,-0.397815,-0.066913,0.501627,0.986418,-0.715208,0.698373,-0.386418,-0.084792
36.250000,0.538268,0.999144,-0.739124,0.661732,-0.399144,-0.060876,0.509391,0.989924,-0.719468,0.690609,-0.389924,-0.080532
36.300000,0.545399,0.999863,-0.745536,0.654601,-0.399863,-0.054464,0.517092,0.992872,-0.724220,0.682908,-0.392872,-0.075780
36.350000,0.552250,0.999966,-0.752284,0.647750,-0.399966,-0.047716,0.524684,0.995246,-0.729438,0.675316,-0.395246,-0.070562
36.400000,0.558779,0.999452,-0.759326,0.641221,-0.399452,-0.040674,0.532219,0.997054,-0.735165,0.667781,-0.397054,-0.064835
36.450000,0.564945,0.998325,-0.766619,0.635055,-0.398325,-0.033381,0.539316,0.998215,-0.741101,0.660684,-0.398215,-0.058899
36.500000,0.570711,0.996593,-0.774118,0.629289,-0.396593,-0.025882,0.546305,0.998799,-0.747506,0.653695,-0.398799,-0.052494
36.550000,0.576041,0.994264,-0.781776,0.623959,-0.394264,-0.018224,0.553034,0.998770,-0.754264,0.646966,-0.398770,-0.045736
36.600000,0.580902,0.991355,-0.789547,0.619098,-0.391355,-0.010453,0.559428,0.998133,-0.761295,0.640572,-0.398133,-0.038705
36.650000,0.585264,0.987882,-0.797382,0.614736,-0.387882,-0.002618,0.565629,0.996842,-0.768787,0.634371,-0.396842,-0.031213
36.700000,0.589101,0.983867,-0.805234,0.610899,-0.383867,0.005234,0.571036,0.995066,-0.775971,0.628964,-0.395066,-0.024029
36.750000,0.592388,0.979335,-0.813053,0.607612,-0.379335,0.013053,0.576207,0.992646,-0.783562,0.623793,-0.392646,-0.016438
36.800000,0.595106,0.974314,-0.820791,0.604894,-0.374314,0.020791,0.581004,0.989579,-0.791425,0.618996,-0.389579,-0.008575
36.850000,0.597237,0.968835,-0.828402,0.602763,-0.368835,0.028402,0.585309,0.985918,-0.799391,0.614691,-0.385918,-0.000609
36.900000,0.598769,0.962932,-0.835837,0.601231,-0.362932,0.035837,0.588780,0.982074,-0.806706,0.611220,-0.382074,0.006706
36.950000,0.599692,0.956641,-0.843051,0.600308,-0.356641,0.043051,0.591931,0.977456,-0.814475,0.608069,-0.377456,0.014475
37.000000,0.600000,0.950000,-0.850000,0.600000,-0.350000,0.050000,0.594504,0.972385,-0.822119,0.605496,-0.372385,0.022119
37.050000,0.599692,0.943051,-0.856641,0.600308,-0.343051,0.056641,0.596491,0.966872,-0.829619,0.603509,-0.366872,0.029619
37.100000,0.598769,0.935837,-0.862932,0.601231,-0.335837,0.062932,0.597882,0.960961,-0.836921,0.602118,-0.360961,0.036921
37.150000,0.597237,0.928402,-0.868835,0.602763,-0.328402,0.068835,0.598676,0.954527,-0.844149,0.601324,-0.354527,0.044149
37.200000,0.595106,0.920791,-0.874314,0.604894,-0.320791,0.074314,0.598841,0.947877,-0.850964,0.601159,-0.347877,0.050964
37.250000,0.592388,0.913053,-0.879335,0.607612,-0.313053,0.079335,0.598413,0.941077,-0.857336,0.601587,-0.341077,0.057336
37.300000,0.589101,0.905234,-0.883867,0.610899,-0.305234,0.083867,0.597371,0.933886,-0.863486,0.602629,-0.333886,0.063486
37.350000,0.585264,0.897382,-0.887882,0.614736,-0.297382,0.087882,0.595738,0.926515,-0.869223,0.604262,-0.326515,0.069223
37.400000,0.580902,0.889547,-0.891355,0.619098,-0.289547,0.091355,0.593508,0.918959,-0.874548,0.606492,-0.318959,0.074548
37.450000,0.576041,0.881776,-0.894264,0.623959,-0.281776,0.094264,0.590694,0.911275,-0.879420,0.609306,-0.311275,0.079420
37.500000,0.570711,0.874118,-0.896593,0.629289,-0.274118,0.096593,0.587264,0.903397,-0.883866,0.612736,-0.303397,0.083866
37.550000,0.564945,0.866619,-0.898325,0.635055,-0.266619,0.098325,0.583426,0.895776,-0.887650,0.616574,-0.295776,0.087650
37.600000,0.558779,0.859326,-0.899452,0.641221,-0.259326,0.099452,0.579001,0.888030,-0.890971,0.620999,-0.288030,0.090971
37.650000,0.552250,0.852284,-0.899966,0.647750,-0.252284,0.099966,0.574090,0.880361,-0.893729,0.625910,-0.280361,0.093729
37.700000,0.545399,0.845536,-0.899863,0.654601,-0.245536,0.099863,0.568623,0.872683,-0.895940,0.631377,-0.272683,0.095940
37.750000,0.538268,0.839124,-0.899144,0.661732,-0.239124,0.099144,0.562943,0.865450,-0.897493,0.637057,-0.265450,0.097493
37.800000,0.530902,0.833087,-0.897815,0.669098,-0.233087,0.097815,0.556763,0.858285,-0.898479,0.643237,-0.258285,0.098479
37.850000,0.523345,0.827463,-0.895882,0.676655,-0.227463,0.095882,0.550247,0.851389,-0.898858,0.649753,-0.251389,0.098858
37.900000,0.515643,0.822285,-0.893358,0.684357,-0.222285,0.093358,0.543473,0.844835,-0.898638,0.656527,-0.244835,0.098638
37.950000,0.507846,0.817587,-0.890259,0.692154,-0.217587,0.090259,0.536354,0.838557,-0.897797,0.663646,-0.238557,0.097797
38.000000,0.500000,0.813397,-0.886603,0.700000,-0.213397,0.086603,0.529002,0.832653,-0.896349,0.670998,-0.232653,0.096349
38.050000,0.492154,0.809741,-0.882413,0.707846,-0.209741,0.082413,0.521504,0.827186,-0.894318,0.678496,-0.227186,0.094318
38.100000,0.484357,0.806642,-0.877715,0.715643,-0.206642,0.077715,0.513860,0.822160,-0.891700,0.686140,-0.222160,0.091700
38.150000,0.476655,0.804118,-0.872537,0.723345,-0.204118,0.072537,0.506122,0.817610,-0.888511,0.693878,-0.217610,0.088511
38.200000,0.469098,0.802185,-0.866913,0.730902,-0.202185,0.066913,0.498380,0.813584,-0.884796,0.701620,-0.213584,0.084796
38.250000,0.461732,0.800856,-0.860876,0.738268,-0.200856,0.060876,0.490613,0.810078,-0.880535,0.709387,-0.210078,0.080535
38.300000,0.454601,0.800137,-0.854464,0.745399,-0.200137,0.054464,0.482773,0.807082,-0.875691,0.717227,-0.207082,0.075691
38.350000,0.447750,0.800034,-0.847716,0.752250,-0.200034,0.047716,0.475327,0.804757,-0.870571,0.724673,-0.204757,0.070571
38.400000,0.441221,0.800548,-0.840674,0.758779,-0.200548,0.040674,0.467885,0.802970,-0.864915,0.732115,-0.202970,0.064915
38.450000,0.435055,0.801675,-0.833381,0.764945,-0.201675,0.033381,0.460424,0.801755,-0.858669,0.739576,-0.201755,0.058669
38.500000,0.429289,0.803407,-0.825882,0.770711,-0.203407,0.025882,0.453685,0.801200,-0.852486,0.746315,-0.201200,0.052486
38.550000,0.423959,0.805736,-0.818224,0.776041,-0.205736,0.018224,0.446852,0.801233,-0.845619,0.753148,-0.201233,0.045619
38.600000,0.419098,0.808645,-0.810453,0.780902,-0.208645,0.010453,0.440591,0.801862,-0.838729,0.759409,-0.201862,0.038729
38.650000,0.414736,0.812118,-0.802618,0.785264,-0.212118,0.002618,0.434562,0.803107,-0.831455,0.765438,-0.203107,0.031455
38.700000,0.410899,0.816133,-0.794766,0.789101,-0.216133,-0.005234,0.428942,0.804948,-0.823994,0.771058,-0.204948,0.023994
38.750000,0.407612,0.820665,-0.786947,0.792388,-0.220665,-0.013053,0.423770,0.807370,-0.816400,0.776230,-0.207370,0.016400
38.800000,0.404894,0.825686,-0.779209,0.795106,-0.225686,-0.020791,0.418923,0.810472,-0.808450,0.781077,-0.210472,0.008450
38.850000,0.402763,0.831165,-0.771598,0.797237,-0.231165,-0.028402,0.414867,0.813906,-0.800961,0.785133,-0.213906,0.000961
38.900000,0.401231,0.837068,-0.764163,0.798769,-0.237068,-0.035837,0.411121,0.818072,-0.793049,0.788879,-0.218072,-0.006951
38.950000,0.400308,0.843359,-0.756949,0.799692,-0.243359,-0.043051,0.408049,0.822577,-0.785473,0.791951,-0.222577,-0.014527
39.000000,0.400000,0.850000,-0.750000,0.800000,-0.250000,-0.050000,0.405484,0.827636,-0.777849,0.794516,-0.227636,-0.022151
39.050000,0.400308,0.856949,-0.743359,0.799692,-0.256949,-0.056641,0.403500,0.833152,-0.770348,0.796500,-0.233152,-0.029652
39.100000,0.401231,0.864163,-0.737068,0.798769,-0.264163,-0.062932,0.402112,0.839078,-0.763034,0.797888,-0.239078,-0.036966
39.150000,0.402763,0.871598,-0.731165,0.797237,-0.271598,-0.068835,0.401328,0.845367,-0.755960,0.798672,-0.245367,-0.044040
39.200000,0.404894,0.879209,-0.725686,0.795106,-0.279209,-0.074314,0.401153,0.852007,-0.749146,0.798847,-0.252007,-0.050854
39.250000,0.407612,0.886947,-0.720665,0.792388,-0.286947,-0.079335,0.401585,0.858927,-0.742658,0.798415,-0.258927,-0.057342
39.300000,0.410899,0.894766,-0.716133,0.789101,-0.294766,-0.083867,0.402628,0.866117,-0.736511,0.797372,-0.266117,-0.063489
39.350000,0.414736,0.902618,-0.712118,0.785264,-0.302618,-0.087882,0.404270,0.873513,-0.730758,0.795730,-0.273513,-0.069242
39.400000,0.419098,0.910453,-0.708645,0.780902,-0.310453,-0.091355,0.406544,0.881196,-0.725349,0.793456,-0.281196,-0.074651
39.450000,0.423959,0.918224,-0.705736,0.776041,-0.318224,-0.094264,0.409304,0.888726,-0.720578,0.790696,-0.288726,-0.079422
39.500000,0.429289,0.925882,-0.703407,0.770711,-0.325882,-0.096593,0.412881,0.896922,-0.715959,0.787119,-0.296922,-0.084041
39.550000,0.435055,0.933381,-0.701675,0.764945,-0.333381,-0.098325,0.416528,0.904149,-0.712378,0.783472,-0.304149,-0.087622
39.600000,0.441221,0.940674,-0.700548,0.758779,-0.340674,-0.099452,0.420964,0.911914,-0.709050,0.779036,-0.311914,-0.090950
39.650000,0.447750,0.947716,-0.700034,0.752250,-0.347716,-0.099966,0.425870,0.919581,-0.706289,0.774130,-0.319581,-0.093711
39.700000,0.454601,0.954464,-0.700137,0.745399,-0.354464,-0.099863,0.431240,0.927135,-0.704106,0.768760,-0.327135,-0.095894
39.750000,0.461732,0.960876,-0.700856,0.738268,-0.360876,-0.099144,0.436979,0.934460,-0.702519,0.763021,-0.334460,-0.097481
39.800000,0.469098,0.966913,-0.702185,0.730902,-0.366913,-0.097815,0.443306,0.941789,-0.701517,0.756694,-0.341789,-0.098483
39.850000,0.476655,0.972537,-0.704118,0.723345,-0.372537,-0.095882,0.449728,0.948582,-0.701147,0.750272,-0.348582,-0.098853
39.900000,0.484357,0.977715,-0.706642,0.715643,-0.377715,-0.093358,0.456559,0.955186,-0.701373,0.743441,-0.355186,-0.098627
39.950000,0.492154,0.982413,-0.709741,0.707846,-0.382413,-0.090259,0.463665,0.961456,-0.702210,0.736335,-0.361456,-0.097790
40.000000,0.500000,0.986603,-0.713397,0.700000,-0.386603,-0.086603,0.471009,0.967355,-0.703655,0.728991,-0.367355,-0.096345
40.050000,0.507846,0.990259,-0.717587,0.692154,-0.390259,-0.082413,0.478525,0.972832,-0.705693,0.721475,-0.372832,-0.094307
40.100000,0.515643,0.993358,-0.722285,0.684357,-0.393358,-0.077715,0.486139,0.977841,-0.708298,0.713861,-0.377841,-0.091702
40.150000,0.523345,0.995882,-0.727463,0.676655,-0.395882,-0.072537,0.494020,0.982469,-0.711551,0.705980,-0.382469,-0.088449
40.200000,0.530902,0.997815,-0.733087,0.669098,-0.397815,-0.066913,0.501616,0.986414,-0.715202,0.698384,-0.386414,-0.084798
